; Generated by GRSlicer ('0.1',);
; Settings:;
;   layerHeight: 1.0;
;   scanlineSpacing: 1.0;
;   exposingCycles: 1000;
G04 E10;
G01 Z501;
; Layer 0 at height 0.501;
; Enable laser;
M19;
G01 Y-39134;
G05 D3555;
G05 D6596;
G05 D0;
G06;
G01 Y1004;
G05 D2107;
G05 D9404;
G05 D0;
G06;
G01 Y1004;
G05 D1251;
G05 D2964;
G05 D5194;
G05 D2853;
G05 D0;
G06;
G01 Y1004;
G05 D480;
G05 D2406;
G05 D7691;
G05 D2227;
G05 D0;
G06;
G01 Y1004;
G05 D-120;
G05 D2511;
G05 D8799;
G05 D1924;
G05 D0;
G06;
G01 Y1004;
G05 D-268;
G05 D2193;
G05 D9512;
G05 D1801;
G05 D0;
G06;
G01 Y1004;
G05 D-416;
G05 D2281;
G05 D9590;
G05 D1820;
G05 D0;
G06;
G01 Y1004;
G05 D-564;
G05 D2404;
G05 D9244;
G05 D2088;
G05 D0;
G06;
G01 Y1004;
G05 D-558;
G05 D2566;
G05 D8495;
G05 D2195;
G05 D0;
G06;
G01 Y1004;
G05 D-432;
G05 D2866;
G05 D6825;
G05 D2708;
G05 D0;
G06;
G01 Y1004;
G05 D-295;
G05 D3487;
G05 D3730;
G05 D3834;
G05 D0;
G06;
G01 Y1004;
G05 D-22493;
G05 D4848;
G05 D17805;
G05 D4123;
G05 D27459;
G05 D4848;
G05 D0;
G06;
G01 Y1004;
G05 D-24470;
G05 D8812;
G05 D16254;
G05 D5207;
G05 D23950;
G05 D8812;
G05 D0;
G06;
G01 Y1004;
G05 D-25575;
G05 D2684;
G05 D5316;
G05 D3012;
G05 D15910;
G05 D6644;
G05 D20664;
G05 D3012;
G05 D5316;
G05 D2684;
G05 D0;
G06;
G01 Y1004;
G05 D-26402;
G05 D2224;
G05 D8088;
G05 D2157;
G05 D16283;
G05 D7741;
G05 D17934;
G05 D2157;
G05 D8088;
G05 D2224;
G05 D0;
G06;
G01 Y1004;
G05 D-26718;
G05 D1778;
G05 D9467;
G05 D2050;
G05 D17214;
G05 D8063;
G05 D15662;
G05 D2050;
G05 D9467;
G05 D1778;
G05 D0;
G06;
G01 Y1004;
G05 D-26991;
G05 D1791;
G05 D10096;
G05 D1937;
G05 D18857;
G05 D7583;
G05 D13988;
G05 D1937;
G05 D10096;
G05 D1791;
G05 D0;
G06;
G01 Y1004;
G05 D-27067;
G05 D1724;
G05 D10461;
G05 D1962;
G05 D20361;
G05 D7056;
G05 D12518;
G05 D1962;
G05 D10461;
G05 D1724;
G05 D0;
G06;
G01 Y1004;
G05 D-27045;
G05 D1721;
G05 D10377;
G05 D1982;
G05 D21930;
G05 D6475;
G05 D11621;
G05 D1982;
G05 D10377;
G05 D1721;
G05 D0;
G06;
G01 Y1004;
G05 D-26640;
G05 D1589;
G05 D10015;
G05 D2028;
G05 D23092;
G05 D6268;
G05 D10750;
G05 D2028;
G05 D10015;
G05 D1589;
G05 D0;
G06;
G01 Y1004;
G05 D-26112;
G05 D1899;
G05 D9065;
G05 D2099;
G05 D23760;
G05 D6019;
G05 D10414;
G05 D2098;
G05 D9066;
G05 D1899;
G05 D0;
G06;
G01 Y1004;
G05 D-25279;
G05 D2700;
G05 D3476;
G05 D1490;
G05 D2185;
G05 D2213;
G05 D24211;
G05 D6002;
G05 D10297;
G05 D2210;
G05 D2198;
G05 D1490;
G05 D3476;
G05 D2700;
G05 D0;
G06;
G01 Y1004;
G05 D-23824;
G05 D4777;
G05 D3330;
G05 D2315;
G05 D24515;
G05 D6149;
G05 D10213;
G05 D2322;
G05 D3344;
G05 D4777;
G05 D0;
G06;
G01 Y1004;
G05 D-15993;
G05 D2397;
G05 D24738;
G05 D6226;
G05 D10295;
G05 D2412;
G05 D0;
G06;
G01 Y1004;
G05 D-16221;
G05 D2596;
G05 D24126;
G05 D6780;
G05 D10416;
G05 D2597;
G05 D0;
G06;
G01 Y1004;
G05 D-16485;
G05 D2867;
G05 D23518;
G05 D7322;
G05 D10466;
G05 D2864;
G05 D0;
G06;
G01 Y1004;
G05 D-16759;
G05 D3154;
G05 D22327;
G05 D8444;
G05 D10509;
G05 D3149;
G05 D0;
G06;
G01 Y1004;
G05 D-17023;
G05 D3419;
G05 D20894;
G05 D9654;
G05 D10737;
G05 D3411;
G05 D0;
G06;
G01 Y1004;
G05 D-17206;
G05 D3700;
G05 D19276;
G05 D10945;
G05 D10933;
G05 D3620;
G05 D0;
G06;
G01 Y1004;
G05 D-17140;
G05 D3922;
G05 D17251;
G05 D12524;
G05 D10804;
G05 D3867;
G05 D0;
G06;
G01 Y1004;
G05 D-17087;
G05 D4600;
G05 D14668;
G05 D14841;
G05 D9776;
G05 D4377;
G05 D0;
G06;
G01 Y1004;
G05 D-16784;
G05 D5877;
G05 D10823;
G05 D19413;
G05 D6240;
G05 D5406;
G05 D0;
G06;
G01 Y1004;
G05 D-16359;
G05 D46929;
G05 D0;
G06;
G01 Y1004;
G05 D-15968;
G05 D46159;
G05 D0;
G06;
G01 Y1004;
G05 D-14695;
G05 D44049;
G05 D0;
G06;
G01 Y1004;
G05 D-13243;
G05 D41520;
G05 D0;
G06;
G01 Y1004;
G05 D-11423;
G05 D37920;
G05 D0;
G06;
G01 Y1004;
G05 D-9329;
G05 D33967;
G05 D0;
G06;
G01 Y1004;
G05 D-6419;
G05 D26988;
G05 D0;
G06;
G01 Y1004;
G05 D-6058;
G05 D26214;
G05 D0;
G06;
G01 Y1004;
G05 D-10179;
G05 D34457;
G05 D0;
G06;
G01 Y1004;
G05 D-12969;
G05 D40036;
G05 D0;
G06;
G01 Y1004;
G05 D-34237;
G05 D2125;
G05 D16928;
G05 D44465;
G05 D16928;
G05 D2125;
G05 D0;
G06;
G01 Y1004;
G05 D-36912;
G05 D7000;
G05 D12765;
G05 D48389;
G05 D12765;
G05 D7000;
G05 D0;
G06;
G01 Y1004;
G05 D-37914;
G05 D2762;
G05 D4000;
G05 D2371;
G05 D10130;
G05 D51393;
G05 D10130;
G05 D2371;
G05 D4000;
G05 D2762;
G05 D0;
G06;
G01 Y1004;
G05 D-38556;
G05 D2184;
G05 D6672;
G05 D1476;
G05 D8290;
G05 D53964;
G05 D8290;
G05 D1476;
G05 D6672;
G05 D2184;
G05 D0;
G06;
G01 Y1004;
G05 D-39010;
G05 D2016;
G05 D7852;
G05 D1277;
G05 D6875;
G05 D5361;
G05 D10300;
G05 D24750;
G05 D10300;
G05 D5361;
G05 D6875;
G05 D1277;
G05 D7852;
G05 D2016;
G05 D0;
G06;
G01 Y1004;
G05 D-39244;
G05 D1836;
G05 D8742;
G05 D837;
G05 D5929;
G05 D3961;
G05 D11981;
G05 D26008;
G05 D11981;
G05 D3961;
G05 D5929;
G05 D837;
G05 D8742;
G05 D1836;
G05 D0;
G06;
G01 Y1004;
G05 D-39372;
G05 D1764;
G05 D9375;
G05 D219;
G05 D5316;
G05 D3681;
G05 D11406;
G05 D29315;
G05 D11406;
G05 D3681;
G05 D5316;
G05 D219;
G05 D9375;
G05 D1764;
G05 D0;
G06;
G01 Y1004;
G05 D-39402;
G05 D1768;
G05 D14110;
G05 D3562;
G05 D10695;
G05 D32629;
G05 D10695;
G05 D3562;
G05 D14110;
G05 D1768;
G05 D0;
G06;
G01 Y1004;
G05 D-39248;
G05 D1809;
G05 D13025;
G05 D3472;
G05 D10092;
G05 D35793;
G05 D10092;
G05 D3472;
G05 D13025;
G05 D1809;
G05 D0;
G06;
G01 Y1004;
G05 D-39012;
G05 D2072;
G05 D11428;
G05 D3570;
G05 D9478;
G05 D39020;
G05 D9478;
G05 D3570;
G05 D11428;
G05 D2072;
G05 D0;
G06;
G01 Y1004;
G05 D-38460;
G05 D2130;
G05 D9498;
G05 D3766;
G05 D9026;
G05 D42176;
G05 D9026;
G05 D3766;
G05 D9498;
G05 D2130;
G05 D0;
G06;
G01 Y1004;
G05 D-37900;
G05 D2968;
G05 D6294;
G05 D4334;
G05 D9186;
G05 D44329;
G05 D9186;
G05 D4334;
G05 D6294;
G05 D2968;
G05 D0;
G06;
G01 Y1004;
G05 D-36842;
G05 D10996;
G05 D9741;
G05 D46305;
G05 D9741;
G05 D10996;
G05 D0;
G06;
G01 Y1004;
G05 D-35114;
G05 D6857;
G05 D11192;
G05 D4907;
G05 D7068;
G05 D24274;
G05 D7068;
G05 D4907;
G05 D11192;
G05 D6857;
G05 D0;
G06;
G01 Y1004;
G05 D-17511;
G05 D3899;
G05 D10336;
G05 D20648;
G05 D10336;
G05 D3899;
G05 D0;
G06;
G01 Y1004;
G05 D-17840;
G05 D3631;
G05 D11702;
G05 D19396;
G05 D11417;
G05 D3631;
G05 D0;
G06;
G01 Y1004;
G05 D-18184;
G05 D3496;
G05 D12528;
G05 D18757;
G05 D12187;
G05 D3496;
G05 D0;
G06;
G01 Y1004;
G05 D-18149;
G05 D3427;
G05 D12836;
G05 D18061;
G05 D12642;
G05 D3427;
G05 D0;
G06;
G01 Y1004;
G05 D-18071;
G05 D3402;
G05 D13058;
G05 D17365;
G05 D13011;
G05 D3402;
G05 D0;
G06;
G01 Y1004;
G05 D-17990;
G05 D3375;
G05 D13346;
G05 D16657;
G05 D13323;
G05 D3375;
G05 D0;
G06;
G01 Y1004;
G05 D-17896;
G05 D3448;
G05 D13737;
G05 D15618;
G05 D13636;
G05 D3448;
G05 D0;
G06;
G01 Y1004;
G05 D-17514;
G05 D3351;
G05 D14054;
G05 D14514;
G05 D13853;
G05 D3351;
G05 D0;
G06;
G01 Y1004;
G05 D-17122;
G05 D3236;
G05 D14697;
G05 D12454;
G05 D14717;
G05 D3236;
G05 D0;
G06;
G01 Y1004;
G05 D-16724;
G05 D3084;
G05 D14285;
G05 D10634;
G05 D16457;
G05 D3084;
G05 D0;
G06;
G01 Y1004;
G05 D-24352;
G05 D5770;
G05 D2215;
G05 D2943;
G05 D13898;
G05 D7023;
G05 D20021;
G05 D2943;
G05 D2215;
G05 D5770;
G05 D0;
G06;
G01 Y1004;
G05 D-25476;
G05 D2375;
G05 D4516;
G05 D1233;
G05 D1334;
G05 D2802;
G05 D13772;
G05 D6584;
G05 D20168;
G05 D2802;
G05 D1334;
G05 D1233;
G05 D4516;
G05 D2375;
G05 D0;
G06;
G01 Y1004;
G05 D-26321;
G05 D1905;
G05 D8713;
G05 D2621;
G05 D13699;
G05 D6215;
G05 D20345;
G05 D2621;
G05 D8713;
G05 D1905;
G05 D0;
G06;
G01 Y1004;
G05 D-26753;
G05 D1640;
G05 D9465;
G05 D2580;
G05 D13742;
G05 D5863;
G05 D20627;
G05 D2580;
G05 D9465;
G05 D1640;
G05 D0;
G06;
G01 Y1004;
G05 D-27073;
G05 D1713;
G05 D9767;
G05 D2542;
G05 D13886;
G05 D5624;
G05 D20686;
G05 D2542;
G05 D9767;
G05 D1713;
G05 D0;
G06;
G01 Y1004;
G05 D-27076;
G05 D1696;
G05 D9748;
G05 D2528;
G05 D14233;
G05 D5399;
G05 D20672;
G05 D2528;
G05 D9748;
G05 D1696;
G05 D0;
G06;
G01 Y1004;
G05 D-27010;
G05 D1825;
G05 D9324;
G05 D2415;
G05 D14886;
G05 D5337;
G05 D20762;
G05 D2415;
G05 D9324;
G05 D1825;
G05 D0;
G06;
G01 Y1004;
G05 D-26617;
G05 D1802;
G05 D8440;
G05 D2502;
G05 D15886;
G05 D5199;
G05 D20756;
G05 D2502;
G05 D8440;
G05 D1802;
G05 D0;
G06;
G01 Y1004;
G05 D-26216;
G05 D2173;
G05 D6865;
G05 D2728;
G05 D17041;
G05 D5121;
G05 D20831;
G05 D2728;
G05 D6865;
G05 D2173;
G05 D0;
G06;
G01 Y1004;
G05 D-25453;
G05 D2778;
G05 D4052;
G05 D3232;
G05 D18730;
G05 D5096;
G05 D21049;
G05 D3232;
G05 D4052;
G05 D2778;
G05 D0;
G06;
G01 Y1004;
G05 D-24272;
G05 D7773;
G05 D20630;
G05 D5617;
G05 D20847;
G05 D7773;
G05 D0;
G06;
G01 Y1004;
G05 D-21898;
G05 D3420;
G05 D23772;
G05 D5932;
G05 D21348;
G05 D3420;
G05 D0;
G06;
G01 Y1004;
G05 D6569;
G05 D5818;
G05 D0;
G06;
G01 Y1004;
G05 D8337;
G05 D5024;
G05 D0;
G06;
G01 Y1004;
G05 D9659;
G05 D4184;
G05 D0;
G06;
G01 Y1004;
G05 D3339;
G05 D3936;
G05 D3526;
G05 D3538;
G05 D0;
G06;
G01 Y1004;
G05 D2130;
G05 D2708;
G05 D6776;
G05 D2905;
G05 D0;
G06;
G01 Y1004;
G05 D1399;
G05 D2195;
G05 D8486;
G05 D2567;
G05 D0;
G06;
G01 Y1004;
G05 D923;
G05 D2088;
G05 D9245;
G05 D2409;
G05 D0;
G06;
G01 Y1004;
G05 D822;
G05 D1820;
G05 D9590;
G05 D2284;
G05 D0;
G06;
G01 Y1004;
G05 D859;
G05 D1801;
G05 D9512;
G05 D2195;
G05 D0;
G06;
G01 Y1004;
G05 D981;
G05 D1924;
G05 D8799;
G05 D2512;
G05 D0;
G06;
G01 Y1004;
G05 D1291;
G05 D2227;
G05 D7691;
G05 D2406;
G05 D0;
G06;
G01 Y1004;
G05 D1832;
G05 D2853;
G05 D5194;
G05 D2964;
G05 D0;
G06;
G01 Y1004;
G05 D2585;
G05 D9403;
G05 D0;
G06;
G01 Y1004;
G05 D3946;
G05 D6595;
G05 D0;
G06;
; Disable laser;
M20;
G01 Z979;
; Layer 1 at height 1.48094166667;
; Enable laser;
M19;
G01 Y-91417;
G05 D4231;
G05 D3951;
G05 D0;
G06;
G01 Y1004;
G05 D2755;
G05 D3025;
G05 D2531;
G05 D2025;
G05 D0;
G06;
G01 Y1004;
G05 D1681;
G05 D1901;
G05 D6957;
G05 D759;
G05 D0;
G06;
G01 Y1004;
G05 D934;
G05 D1616;
G05 D8968;
G05 D659;
G05 D0;
G06;
G01 Y1004;
G05 D202;
G05 D1840;
G05 D9937;
G05 D385;
G05 D0;
G06;
G01 Y1004;
G05 D38;
G05 D1595;
G05 D0;
G06;
G01 Y1004;
G05 D-114;
G05 D1709;
G05 D0;
G06;
G01 Y1004;
G05 D-277;
G05 D1843;
G05 D0;
G06;
G01 Y1004;
G05 D-279;
G05 D2003;
G05 D0;
G06;
G01 Y1004;
G05 D-155;
G05 D2200;
G05 D0;
G06;
G01 Y1004;
G05 D88;
G05 D2648;
G05 D0;
G06;
G01 Y1004;
G05 D-21105;
G05 D1877;
G05 D19798;
G05 D3201;
G05 D29553;
G05 D1877;
G05 D0;
G06;
G01 Y1004;
G05 D-23973;
G05 D3810;
G05 D56;
G05 D3844;
G05 D17333;
G05 D3974;
G05 D25313;
G05 D3844;
G05 D56;
G05 D3810;
G05 D0;
G06;
G01 Y1004;
G05 D-25139;
G05 D1572;
G05 D6772;
G05 D1790;
G05 D17004;
G05 D5077;
G05 D22025;
G05 D1790;
G05 D6772;
G05 D1572;
G05 D0;
G06;
G01 Y1004;
G05 D-25965;
G05 D1326;
G05 D8997;
G05 D1368;
G05 D17255;
G05 D6380;
G05 D19008;
G05 D1368;
G05 D8997;
G05 D1326;
G05 D0;
G06;
G01 Y1004;
G05 D-26333;
G05 D1030;
G05 D10184;
G05 D1367;
G05 D18311;
G05 D6627;
G05 D16660;
G05 D1367;
G05 D10184;
G05 D1030;
G05 D0;
G06;
G01 Y1004;
G05 D-26613;
G05 D995;
G05 D10835;
G05 D1291;
G05 D19833;
G05 D6384;
G05 D14860;
G05 D1291;
G05 D10835;
G05 D995;
G05 D0;
G06;
G01 Y1004;
G05 D-26698;
G05 D927;
G05 D11212;
G05 D1319;
G05 D21321;
G05 D5897;
G05 D13357;
G05 D1319;
G05 D11212;
G05 D927;
G05 D0;
G06;
G01 Y1004;
G05 D-26686;
G05 D892;
G05 D11163;
G05 D1350;
G05 D22629;
G05 D5633;
G05 D12393;
G05 D1350;
G05 D11163;
G05 D892;
G05 D0;
G06;
G01 Y1004;
G05 D-26254;
G05 D830;
G05 D10696;
G05 D1410;
G05 D23711;
G05 D5592;
G05 D11426;
G05 D1410;
G05 D10696;
G05 D830;
G05 D0;
G06;
G01 Y1004;
G05 D-25515;
G05 D877;
G05 D9789;
G05 D1502;
G05 D24213;
G05 D5581;
G05 D10992;
G05 D1501;
G05 D9791;
G05 D877;
G05 D0;
G06;
G01 Y1004;
G05 D-24530;
G05 D986;
G05 D8409;
G05 D1610;
G05 D24773;
G05 D5493;
G05 D10869;
G05 D1599;
G05 D8428;
G05 D986;
G05 D0;
G06;
G01 Y1004;
G05 D-22199;
G05 D1345;
G05 D503;
G05 D122;
G05 D4798;
G05 D1709;
G05 D25097;
G05 D5658;
G05 D10764;
G05 D1709;
G05 D4817;
G05 D122;
G05 D503;
G05 D1345;
G05 D0;
G06;
G01 Y1004;
G05 D-15722;
G05 D1784;
G05 D25395;
G05 D5659;
G05 D10891;
G05 D1794;
G05 D0;
G06;
G01 Y1004;
G05 D-15992;
G05 D2032;
G05 D24773;
G05 D6195;
G05 D11027;
G05 D2040;
G05 D0;
G06;
G01 Y1004;
G05 D-16257;
G05 D2303;
G05 D24121;
G05 D6732;
G05 D11130;
G05 D2309;
G05 D0;
G06;
G01 Y1004;
G05 D-16497;
G05 D2553;
G05 D23097;
G05 D7651;
G05 D11217;
G05 D2547;
G05 D0;
G06;
G01 Y1004;
G05 D-16716;
G05 D2797;
G05 D21825;
G05 D8694;
G05 D11397;
G05 D2766;
G05 D0;
G06;
G01 Y1004;
G05 D-16891;
G05 D3061;
G05 D20352;
G05 D9870;
G05 D11584;
G05 D2975;
G05 D0;
G06;
G01 Y1004;
G05 D-16856;
G05 D3335;
G05 D18308;
G05 D11447;
G05 D11437;
G05 D3267;
G05 D0;
G06;
G01 Y1004;
G05 D-16821;
G05 D4045;
G05 D15742;
G05 D13565;
G05 D10572;
G05 D3802;
G05 D0;
G06;
G01 Y1004;
G05 D-16558;
G05 D5219;
G05 D12104;
G05 D17981;
G05 D7196;
G05 D4789;
G05 D0;
G06;
G01 Y1004;
G05 D-16207;
G05 D46607;
G05 D0;
G06;
G01 Y1004;
G05 D-15803;
G05 D45870;
G05 D0;
G06;
G01 Y1004;
G05 D-14468;
G05 D43610;
G05 D0;
G06;
G01 Y1004;
G05 D-12945;
G05 D40970;
G05 D0;
G06;
G01 Y1004;
G05 D-11131;
G05 D37319;
G05 D0;
G06;
G01 Y1004;
G05 D-8832;
G05 D32804;
G05 D0;
G06;
G01 Y1004;
G05 D-6112;
G05 D26342;
G05 D0;
G06;
G01 Y1004;
G05 D-5040;
G05 D24178;
G05 D0;
G06;
G01 Y1004;
G05 D-8379;
G05 D30857;
G05 D0;
G06;
G01 Y1004;
G05 D-11784;
G05 D37666;
G05 D0;
G06;
G01 Y1004;
G05 D-14340;
G05 D42779;
G05 D0;
G06;
G01 Y1004;
G05 D-36389;
G05 D5229;
G05 D14599;
G05 D47217;
G05 D14599;
G05 D5229;
G05 D0;
G06;
G01 Y1004;
G05 D-37522;
G05 D1649;
G05 D17668;
G05 D50505;
G05 D17668;
G05 D1649;
G05 D0;
G06;
G01 Y1004;
G05 D-38242;
G05 D1484;
G05 D17207;
G05 D7512;
G05 D4849;
G05 D28475;
G05 D4848;
G05 D7512;
G05 D17207;
G05 D1484;
G05 D0;
G06;
G01 Y1004;
G05 D-38787;
G05 D1516;
G05 D16646;
G05 D4330;
G05 D11924;
G05 D22835;
G05 D11924;
G05 D4330;
G05 D16646;
G05 D1516;
G05 D0;
G06;
G01 Y1004;
G05 D-39060;
G05 D1462;
G05 D16036;
G05 D3382;
G05 D12721;
G05 D25014;
G05 D12721;
G05 D3382;
G05 D16036;
G05 D1462;
G05 D0;
G06;
G01 Y1004;
G05 D-39239;
G05 D1473;
G05 D15381;
G05 D3063;
G05 D12209;
G05 D28318;
G05 D12209;
G05 D3063;
G05 D15381;
G05 D1473;
G05 D0;
G06;
G01 Y1004;
G05 D-39285;
G05 D1494;
G05 D14560;
G05 D3001;
G05 D11395;
G05 D31761;
G05 D11395;
G05 D3001;
G05 D14560;
G05 D1494;
G05 D0;
G06;
G01 Y1004;
G05 D-39151;
G05 D1577;
G05 D13452;
G05 D2966;
G05 D10669;
G05 D35067;
G05 D10669;
G05 D2966;
G05 D13452;
G05 D1577;
G05 D0;
G06;
G01 Y1004;
G05 D-38920;
G05 D1837;
G05 D11901;
G05 D3082;
G05 D9935;
G05 D38425;
G05 D9935;
G05 D3082;
G05 D11901;
G05 D1837;
G05 D0;
G06;
G01 Y1004;
G05 D-38378;
G05 D1850;
G05 D9976;
G05 D3401;
G05 D9387;
G05 D41623;
G05 D9387;
G05 D3401;
G05 D9976;
G05 D1850;
G05 D0;
G06;
G01 Y1004;
G05 D-37829;
G05 D2649;
G05 D6875;
G05 D3916;
G05 D9459;
G05 D43956;
G05 D9459;
G05 D3916;
G05 D6875;
G05 D2649;
G05 D0;
G06;
G01 Y1004;
G05 D-36740;
G05 D10728;
G05 D10140;
G05 D45840;
G05 D10140;
G05 D10728;
G05 D0;
G06;
G01 Y1004;
G05 D-34957;
G05 D6302;
G05 D11885;
G05 D4310;
G05 D7198;
G05 D24618;
G05 D7198;
G05 D4310;
G05 D11885;
G05 D6302;
G05 D0;
G06;
G01 Y1004;
G05 D-17242;
G05 D3206;
G05 D10583;
G05 D21004;
G05 D10582;
G05 D3206;
G05 D0;
G06;
G01 Y1004;
G05 D-17523;
G05 D2915;
G05 D11708;
G05 D20127;
G05 D11477;
G05 D2915;
G05 D0;
G06;
G01 Y1004;
G05 D-17803;
G05 D2688;
G05 D12446;
G05 D19689;
G05 D12193;
G05 D2688;
G05 D0;
G06;
G01 Y1004;
G05 D-17754;
G05 D2602;
G05 D12757;
G05 D19004;
G05 D12640;
G05 D2602;
G05 D0;
G06;
G01 Y1004;
G05 D-17669;
G05 D2561;
G05 D12979;
G05 D18354;
G05 D12979;
G05 D2561;
G05 D0;
G06;
G01 Y1004;
G05 D-17584;
G05 D2521;
G05 D13188;
G05 D17850;
G05 D13184;
G05 D2521;
G05 D0;
G06;
G01 Y1004;
G05 D-17464;
G05 D2552;
G05 D13597;
G05 D16811;
G05 D13514;
G05 D2552;
G05 D0;
G06;
G01 Y1004;
G05 D-17058;
G05 D2430;
G05 D13870;
G05 D15723;
G05 D13759;
G05 D2430;
G05 D0;
G06;
G01 Y1004;
G05 D-16654;
G05 D2306;
G05 D14650;
G05 D13777;
G05 D14365;
G05 D2306;
G05 D0;
G06;
G01 Y1004;
G05 D-16266;
G05 D2182;
G05 D15063;
G05 D11883;
G05 D15318;
G05 D2182;
G05 D0;
G06;
G01 Y1004;
G05 D-23184;
G05 D922;
G05 D2541;
G05 D279;
G05 D3523;
G05 D2069;
G05 D14604;
G05 D9590;
G05 D17595;
G05 D2069;
G05 D3523;
G05 D279;
G05 D2541;
G05 D922;
G05 D0;
G06;
G01 Y1004;
G05 D-24770;
G05 D901;
G05 D8293;
G05 D1943;
G05 D14476;
G05 D5936;
G05 D20950;
G05 D1943;
G05 D8293;
G05 D901;
G05 D0;
G06;
G01 Y1004;
G05 D-25759;
G05 D910;
G05 D9551;
G05 D1812;
G05 D14414;
G05 D5568;
G05 D21085;
G05 D1812;
G05 D9551;
G05 D910;
G05 D0;
G06;
G01 Y1004;
G05 D-26366;
