; Generated by GRSlicer ('0.1',)
G01 Z20
; Layer 0 at height 0.201
; Enable laser
M19
G01 Y5378
G05 D9741
G05 D426
G05 D0
G01 Y50
G05 D9649
G05 D664
G05 D0
G01 Y50
G05 D9575
G05 D805
G05 D0
G01 Y50
G05 D9503
G05 D943
G05 D0
G01 Y50
G05 D9458
G05 D388
G05 D255
G05 D381
G05 D0
G01 Y50
G05 D9418
G05 D302
G05 D509
G05 D289
G05 D0
G01 Y50
G05 D9379
G05 D269
G05 D660
G05 D248
G05 D0
G01 Y50
G05 D9339
G05 D245
G05 D764
G05 D223
G05 D0
G01 Y50
G05 D9300
G05 D259
G05 D830
G05 D199
G05 D0
G01 Y50
G05 D9280
G05 D256
G05 D876
G05 D191
G05 D0
G01 Y50
G05 D9272
G05 D240
G05 D925
G05 D177
G05 D0
G01 Y50
G05 D9265
G05 D225
G05 D949
G05 D178
G05 D0
G01 Y50
G05 D9258
G05 D226
G05 D957
G05 D178
G05 D0
G01 Y50
G05 D9250
G05 D233
G05 D960
G05 D178
G05 D0
G01 Y50
G05 D9243
G05 D239
G05 D943
G05 D198
G05 D0
G01 Y50
G05 D9235
G05 D245
G05 D921
G05 D210
G05 D0
G01 Y50
G05 D9230
G05 D255
G05 D897
G05 D205
G05 D0
G01 Y50
G05 D9236
G05 D262
G05 D843
G05 D221
G05 D0
G01 Y50
G05 D9242
G05 D269
G05 D785
G05 D240
G05 D0
G01 Y50
G05 D9249
G05 D293
G05 D676
G05 D271
G05 D0
G01 Y50
G05 D9255
G05 D325
G05 D406
G05 D440
G05 D0
G01 Y50
G05 D9261
G05 D357
G05 D363
G05 D383
G05 D0
G01 Y50
G05 D7266
G05 D16
G05 D2000
G05 D390
G05 D3042
G05 D16
G05 D0
G01 Y50
G05 D7030
G05 D513
G05 D1761
G05 D424
G05 D2726
G05 D513
G05 D0
G01 Y50
G05 D6905
G05 D744
G05 D1677
G05 D457
G05 D2565
G05 D744
G05 D0
G01 Y50
G05 D6840
G05 D897
G05 D1610
G05 D537
G05 D2374
G05 D897
G05 D0
G01 Y50
G05 D6778
G05 D444
G05 D101
G05 D468
G05 D1577
G05 D624
G05 D2211
G05 D468
G05 D101
G05 D444
G05 D0
G01 Y50
G05 D6730
G05 D296
G05 D493
G05 D326
G05 D1571
G05 D686
G05 D2046
G05 D326
G05 D493
G05 D296
G05 D0
G01 Y50
G05 D6689
G05 D253
G05 D682
G05 D258
G05 D1588
G05 D745
G05 D1900
G05 D258
G05 D682
G05 D253
G05 D0
G01 Y50
G05 D6648
G05 D236
G05 D792
G05 D231
G05 D1613
G05 D792
G05 D1776
G05 D231
G05 D792
G05 D236
G05 D0
G01 Y50
G05 D6630
G05 D214
G05 D870
G05 D220
G05 D1638
G05 D833
G05 D1657
G05 D220
G05 D870
G05 D214
G05 D0
G01 Y50
G05 D6616
G05 D188
G05 D935
G05 D218
G05 D1706
G05 D826
G05 D1548
G05 D218
G05 D935
G05 D188
G05 D0
G01 Y50
G05 D6603
G05 D189
G05 D974
G05 D205
G05 D1789
G05 D802
G05 D1462
G05 D205
G05 D974
G05 D189
G05 D0
G01 Y50
G05 D6589
G05 D190
G05 D997
G05 D207
G05 D1871
G05 D782
G05 D1376
G05 D207
G05 D997
G05 D190
G05 D0
G01 Y50
G05 D6583
G05 D185
G05 D1020
G05 D208
G05 D1945
G05 D766
G05 D1292
G05 D208
G05 D1020
G05 D185
G05 D0
G01 Y50
G05 D6583
G05 D182
G05 D1034
G05 D209
G05 D2019
G05 D728
G05 D1232
G05 D209
G05 D1034
G05 D182
G05 D0
G01 Y50
G05 D6583
G05 D183
G05 D1031
G05 D208
G05 D2101
G05 D694
G05 D1189
G05 D208
G05 D1031
G05 D183
G05 D0
G01 Y50
G05 D6586
G05 D183
G05 D1024
G05 D211
G05 D2179
G05 D664
G05 D1145
G05 D211
G05 D1024
G05 D183
G05 D0
G01 Y50
G05 D6606
G05 D176
G05 D1006
G05 D213
G05 D2238
G05 D652
G05 D1102
G05 D213
G05 D1006
G05 D176
G05 D0
G01 Y50
G05 D6625
G05 D169
G05 D989
G05 D215
G05 D2297
G05 D641
G05 D1059
G05 D215
G05 D989
G05 D169
G05 D0
G01 Y50
G05 D6645
G05 D192
G05 D943
G05 D217
G05 D2344
G05 D619
G05 D1039
G05 D217
G05 D943
G05 D192
G05 D0
G01 Y50
G05 D6676
G05 D201
G05 D651
G05 D14
G05 D229
G05 D222
G05 D2363
G05 D615
G05 D1028
G05 D222
G05 D230
G05 D14
G05 D651
G05 D201
G05 D0
G01 Y50
G05 D6717
G05 D226
G05 D518
G05 D134
G05 D162
G05 D229
G05 D2387
G05 D611
G05 D1021
G05 D228
G05 D163
G05 D134
G05 D518
G05 D226
G05 D0
G01 Y50
G05 D6757
G05 D295
G05 D310
G05 D174
G05 D207
G05 D234
G05 D2408
G05 D612
G05 D1017
G05 D233
G05 D209
G05 D174
G05 D310
G05 D295
G05 D0
G01 Y50
G05 D6797
G05 D682
G05 D252
G05 D238
G05 D2422
G05 D620
G05 D1012
G05 D238
G05 D254
G05 D682
G05 D0
G01 Y50
G05 D6896
G05 D497
G05 D325
G05 D243
G05 D2436
G05 D629
G05 D1008
G05 D243
G05 D327
G05 D497
G05 D0
G01 Y50
G05 D7002
G05 D294
G05 D407
G05 D248
G05 D2449
G05 D638
G05 D1003
G05 D249
G05 D409
G05 D294
G05 D0
G01 Y50
G05 D7691
G05 D252
G05 D2457
G05 D638
G05 D1014
G05 D252
G05 D0
G01 Y50
G05 D7679
G05 D260
G05 D2429
G05 D666
G05 D1021
G05 D259
G05 D0
G01 Y50
G05 D7668
G05 D272
G05 D2398
G05 D693
G05 D1023
G05 D271
G05 D0
G01 Y50
G05 D7656
G05 D284
G05 D2368
G05 D720
G05 D1026
G05 D282
G05 D0
G01 Y50
G05 D7644
G05 D296
G05 D2337
G05 D747
G05 D1028
G05 D294
G05 D0
G01 Y50
G05 D7631
G05 D310
G05 D2294
G05 D787
G05 D1030
G05 D308
G05 D0
G01 Y50
G05 D7617
G05 D325
G05 D2216
G05 D861
G05 D1032
G05 D323
G05 D0
G01 Y50
G05 D7603
G05 D339
G05 D2140
G05 D929
G05 D1041
G05 D336
G05 D0
G01 Y50
G05 D7588
G05 D353
G05 D2063
G05 D994
G05 D1053
G05 D350
G05 D0
G01 Y50
G05 D7575
G05 D367
G05 D1993
G05 D1053
G05 D1065
G05 D363
G05 D0
G01 Y50
G05 D7567
G05 D384
G05 D1896
G05 D1129
G05 D1074
G05 D376
G05 D0
G01 Y50
G05 D7570
G05 D395
G05 D1795
G05 D1204
G05 D1072
G05 D389
G05 D0
G01 Y50
G05 D7574
G05 D406
G05 D1695
G05 D1285
G05 D1063
G05 D400
G05 D0
G01 Y50
G05 D7577
G05 D430
G05 D1582
G05 D1390
G05 D1029
G05 D411
G05 D0
G01 Y50
G05 D7580
G05 D473
G05 D1438
G05 D1527
G05 D946
G05 D451
G05 D0
G01 Y50
G05 D7589
G05 D525
G05 D1274
G05 D1744
G05 D787
G05 D495
G05 D0
G01 Y50
G05 D7610
G05 D618
G05 D1012
G05 D2004
G05 D595
G05 D557
G05 D0
G01 Y50
G05 D7631
G05 D3856
G05 D194
G05 D695
G05 D0
G01 Y50
G05 D7653
G05 D4705
G05 D0
G01 Y50
G05 D7674
G05 D4663
G05 D0
G01 Y50
G05 D7694
G05 D4623
G05 D0
G01 Y50
G05 D7751
G05 D4540
G05 D0
G01 Y50
G05 D7818
G05 D4418
G05 D0
G01 Y50
G05 D7886
G05 D4297
G05 D0
G01 Y50
G05 D7961
G05 D4168
G05 D0
G01 Y50
G05 D8052
G05 D3999
G05 D0
G01 Y50
G05 D8143
G05 D3812
G05 D0
G01 Y50
G05 D8234
G05 D3626
G05 D0
G01 Y50
G05 D8346
G05 D3420
G05 D0
G01 Y50
G05 D8497
G05 D3072
G05 D0
G01 Y50
G05 D8643
G05 D2718
G05 D0
G01 Y50
G05 D8729
G05 D2547
G05 D0
G01 Y50
G05 D8577
G05 D2844
G05 D0
G01 Y50
G05 D8388
G05 D3223
G05 D0
G01 Y50
G05 D8222
G05 D3555
G05 D0
G01 Y50
G05 D8082
G05 D3835
G05 D0
G01 Y50
G05 D7961
G05 D4076
G05 D0
G01 Y50
G05 D7846
G05 D4307
G05 D0
G01 Y50
G05 D5852
G05 D243
G05 D1654
G05 D4499
G05 D1654
G05 D243
G05 D0
G01 Y50
G05 D5694
G05 D549
G05 D1409
G05 D4690
G05 D1409
G05 D549
G05 D0
G01 Y50
G05 D5602
G05 D699
G05 D1264
G05 D4866
G05 D1264
G05 D699
G05 D0
G01 Y50
G05 D5552
G05 D401
G05 D72
G05 D331
G05 D1135
G05 D5014
G05 D1135
G05 D331
G05 D72
G05 D401
G05 D0
G01 Y50
G05 D5501
G05 D281
G05 D392
G05 D237
G05 D1006
G05 D5162
G05 D1006
G05 D237
G05 D392
G05 D281
G05 D0
G01 Y50
G05 D5467
G05 D248
G05 D532
G05 D203
G05 D897
G05 D5302
G05 D897
G05 D203
G05 D532
G05 D248
G05 D0
G01 Y50
G05 D5437
G05 D223
G05 D659
G05 D149
G05 D826
G05 D5408
G05 D826
G05 D149
G05 D659
G05 D223
G05 D0
G01 Y50
G05 D5407
G05 D218
G05 D727
G05 D131
G05 D757
G05 D701
G05 D680
G05 D2748
G05 D680
G05 D701
G05 D757
G05 D131
G05 D727
G05 D218
G05 D0
G01 Y50
G05 D5391
G05 D206
G05 D783
G05 D120
G05 D688
G05 D559
G05 D988
G05 D2523
G05 D988
G05 D559
G05 D688
G05 D120
G05 D783
G05 D206
G05 D0
G01 Y50
G05 D5380
G05 D191
G05 D837
G05 D102
G05 D628
G05 D466
G05 D1128
G05 D2529
G05 D1128
G05 D466
G05 D628
G05 D102
G05 D837
G05 D191
G05 D0
G01 Y50
G05 D5368
G05 D187
G05 D871
G05 D84
G05 D587
G05 D402
G05 D1180
G05 D2633
G05 D1180
G05 D402
G05 D587
G05 D84
G05 D871
G05 D187
G05 D0
G01 Y50
G05 D5358
G05 D182
G05 D895
G05 D80
G05 D543
G05 D388
G05 D1149
G05 D2802
G05 D1149
G05 D388
G05 D543
G05 D80
G05 D895
G05 D182
G05 D0
G01 Y50
G05 D5356
G05 D178
G05 D913
G05 D63
G05 D507
G05 D374
G05 D1123
G05 D2962
G05 D1123
G05 D374
G05 D507
G05 D63
G05 D913
G05 D178
G05 D0
G01 Y50
G05 D5355
G05 D176
G05 D1450
G05 D365
G05 D1092
G05 D3121
G05 D1092
G05 D365
G05 D1450
G05 D176
G05 D0
G01 Y50
G05 D5353
G05 D179
G05 D1404
G05 D359
G05 D1059
G05 D3285
G05 D1059
G05 D359
G05 D1404
G05 D179
G05 D0
G01 Y50
G05 D5358
G05 D184
G05 D1350
G05 D354
G05 D1029
G05 D3443
G05 D1029
G05 D354
G05 D1350
G05 D184
G05 D0
G01 Y50
G05 D5369
G05 D184
G05 D1294
G05 D350
G05 D999
G05 D3602
G05 D999
G05 D350
G05 D1294
G05 D184
G05 D0
G01 Y50
G05 D5380
G05 D198
G05 D1225
G05 D344
G05 D969
G05 D3763
G05 D969
G05 D344
G05 D1225
G05 D198
G05 D0
G01 Y50
G05 D5392
G05 D211
G05 D1135
G05 D355
G05 D944
G05 D3920
G05 D944
G05 D355
G05 D1135
G05 D211
G05 D0
G01 Y50
G05 D5419
G05 D209
G05 D1044
G05 D367
G05 D920
G05 D4077
G05 D920
G05 D367
G05 D1044
G05 D209
G05 D0
G01 Y50
G05 D5447
G05 D218
G05 D941
G05 D374
G05 D900
G05 D4234
G05 D900
G05 D374
G05 D941
G05 D218
G05 D0
G01 Y50
G05 D5475
G05 D255
G05 D791
G05 D399
G05 D906
G05 D4344
G05 D906
G05 D399
G05 D791
G05 D255
G05 D0
G01 Y50
G05 D5503
G05 D303
G05 D618
G05 D435
G05 D917
G05 D4443
G05 D917
G05 D435
G05 D618
G05 D303
G05 D0
G01 Y50
G05 D5548
G05 D368
G05 D358
G05 D520
G05 D933
G05 D4542
G05 D933
G05 D520
G05 D358
G05 D368
G05 D0
G01 Y50
G05 D5609
G05 D1101
G05 D968
G05 D4641
G05 D968
G05 D1101
G05 D0
G01 Y50
G05 D5682
G05 D938
G05 D1009
G05 D575
G05 D499
G05 D2589
G05 D499
G05 D575
G05 D1009
G05 D938
G05 D0
G01 Y50
G05 D5780
G05 D696
G05 D1104
G05 D506
G05 D703
G05 D2416
G05 D703
G05 D506
G05 D1104
G05 D696
G05 D0
G01 Y50
G05 D5945
G05 D364
G05 D1243
G05 D462
G05 D865
G05 D2235
G05 D865
G05 D462
G05 D1243
G05 D364
G05 D0
G01 Y50
G05 D7537
G05 D407
G05 D1028
G05 D2054
G05 D1028
G05 D407
G05 D0
G01 Y50
G05 D7520
G05 D386
G05 D1115
G05 D1968
G05 D1103
G05 D386
G05 D0
G01 Y50
G05 D7502
G05 D380
G05 D1170
G05 D1920
G05 D1143
G05 D380
G05 D0
G01 Y50
G05 D7485
G05 D373
G05 D1221
G05 D1876
G05 D1182
G05 D373
G05 D0
G01 Y50
G05 D7468
G05 D367
G05 D1258
G05 D1846
G05 D1222
G05 D367
G05 D0
G01 Y50
G05 D7468
G05 D361
G05 D1278
G05 D1812
G05 D1249
G05 D361
G05 D0
G01 Y50
G05 D7472
G05 D360
G05 D1289
G05 D1777
G05 D1268
G05 D360
G05 D0
G01 Y50
G05 D7476
G05 D358
G05 D1300
G05 D1742
G05 D1286
G05 D358
G05 D0
G01 Y50
G05 D7480
G05 D357
G05 D1311
G05 D1707
G05 D1304
G05 D357
G05 D0
G01 Y50
G05 D7484
G05 D356
G05 D1322
G05 D1673
G05 D1322
G05 D356
G05 D0
G01 Y50
G05 D7488
G05 D354
G05 D1343
G05 D1629
G05 D1340
G05 D354
G05 D0
G01 Y50
G05 D7492
G05 D353
G05 D1368
G05 D1577
G05 D1361
G05 D353
G05 D0
G01 Y50
G05 D7497
G05 D362
G05 D1382
G05 D1525
G05 D1371
G05 D362
G05 D0
G01 Y50
G05 D7516
G05 D357
G05 D1396
G05 D1473
G05 D1381
G05 D357
G05 D0
G01 Y50
G05 D7535
G05 D352
G05 D1430
G05 D1398
G05 D1395
G05 D352
G05 D0
G01 Y50
G05 D7554
G05 D346
G05 D1473
G05 D1281
G05 D1441
G05 D346
G05 D0
G01 Y50
G05 D7573
G05 D341
G05 D1451
G05 D1230
G05 D1487
G05 D341
G05 D0
G01 Y50
G05 D7593
G05 D335
G05 D1429
G05 D1131
G05 D1580
G05 D335
G05 D0
G01 Y50
G05 D7612
G05 D326
G05 D1410
G05 D996
G05 D1713
G05 D326
G05 D0
G01 Y50
G05 D6952
G05 D392
G05 D285
G05 D319
G05 D1391
G05 D732
G05 D1974
G05 D319
G05 D285
G05 D392
G05 D0
G01 Y50
G05 D6840
G05 D599
G05 D208
G05 D311
G05 D1374
G05 D721
G05 D1982
G05 D311
G05 D208
G05 D599
G05 D0
G01 Y50
G05 D6777
G05 D421
G05 D82
G05 D226
G05 D159
G05 D304
G05 D1367
G05 D700
G05 D1989
G05 D304
G05 D159
G05 D226
G05 D82
G05 D421
G05 D0
G01 Y50
G05 D6737
G05 D261
G05 D429
G05 D136
G05 D118
G05 D296
G05 D1360
G05 D679
G05 D1997
G05 D296
G05 D118
G05 D136
G05 D429
G05 D261
G05 D0
G01 Y50
G05 D6697
G05 D200
G05 D599
G05 D51
G05 D152
G05 D289
G05 D1352
G05 D660
G05 D2003
G05 D289
G05 D152
G05 D51
G05 D599
G05 D200
G05 D0
G01 Y50
G05 D6656
G05 D201
G05 D858
G05 D277
G05 D1352
G05 D641
G05 D2017
G05 D277
G05 D858
G05 D201
G05 D0
G01 Y50
G05 D6634
G05 D182
G05 D902
G05 D276
G05 D1354
G05 D621
G05 D2032
G05 D276
G05 D902
G05 D182
G05 D0
G01 Y50
G05 D6615
G05 D173
G05 D933
G05 D274
G05 D1356
G05 D602
G05 D2048
G05 D274
G05 D933
G05 D173
G05 D0
G01 Y50
G05 D6595
G05 D180
G05 D948
G05 D272
G05 D1358
G05 D592
G05 D2054
G05 D272
G05 D948
G05 D180
G05 D0
G01 Y50
G05 D6583
G05 D182
G05 D961
G05 D271
G05 D1369
G05 D581
G05 D2051
G05 D271
G05 D961
G05 D182
G05 D0
G01 Y50
G05 D6582
G05 D181
G05 D966
G05 D269
G05 D1384
G05 D568
G05 D2047
G05 D269
G05 D966
G05 D181
G05 D0
G01 Y50
G05 D6581
G05 D179
G05 D961
G05 D270
G05 D1406
G05 D555
G05 D2051
G05 D270
G05 D961
G05 D179
G05 D0
G01 Y50
G05 D6581
G05 D183
G05 D947
G05 D264
G05 D1439
G05 D545
G05 D2062
G05 D264
G05 D947
G05 D183
G05 D0
G01 Y50
G05 D6587
G05 D194
G05 D918
G05 D258
G05 D1472
G05 D549
G05 D2060
G05 D258
G05 D918
G05 D194
G05 D0
G01 Y50
G05 D6607
G05 D193
G05 D875
G05 D265
G05 D1516
G05 D543
G05 D2055
G05 D265
G05 D875
G05 D193
G05 D0
G01 Y50
G05 D6627
G05 D191
G05 D829
G05 D267
G05 D1571
G05 D536
G05 D2059
G05 D267
G05 D829
G05 D191
G05 D0
G01 Y50
G05 D6646
G05 D211
G05 D759
G05 D270
G05 D1629
G05 D529
G05 D2066
G05 D270
G05 D759
G05 D211
G05 D0
G01 Y50
G05 D6666
G05 D232
G05 D668
G05 D290
G05 D1687
G05 D528
G05 D2068
G05 D290
G05 D668
G05 D232
G05 D0
G01 Y50
G05 D6703
G05 D263
G05 D552
G05 D304
G05 D1753
G05 D532
G05 D2068
G05 D304
G05 D552
G05 D263
G05 D0
G01 Y50
G05 D6743
G05 D308
G05 D365
G05 D348
G05 D1851
G05 D526
G05 D2089
G05 D348
G05 D365
G05 D308
G05 D0
G01 Y50
G05 D6783
G05 D926
G05 D1946
G05 D548
G05 D2086
G05 D926
G05 D0
G01 Y50
G05 D6860
G05 D793
G05 D2041
G05 D587
G05 D2063
G05 D793
G05 D0
G01 Y50
G05 D6938
G05 D624
G05 D2175
G05 D623
G05 D2075
G05 D624
G05 D0
G01 Y50
G05 D7074
G05 D384
G05 D2348
G05 D620
G05 D2113
G05 D384
G05 D0
G01 Y50
G05 D9877
G05 D609
G05 D0
G01 Y50
G05 D9944
G05 D600
G05 D0
G01 Y50
G05 D10026
G05 D575
G05 D0
G01 Y50
G05 D10121
G05 D515
G05 D0
G01 Y50
G05 D10197
G05 D463
G05 D0
G01 Y50
G05 D10255
G05 D430
G05 D0
G01 Y50
G05 D10312
G05 D396
G05 D0
G01 Y50
G05 D9634
G05 D394
G05 D341
G05 D364
G05 D0
G01 Y50
G05 D9571
G05 D447
G05 D392
G05 D331
G05 D0
G01 Y50
G05 D9509
G05 D271
G05 D671
G05 D297
G05 D0
G01 Y50
G05 D9460
G05 D240
G05 D784
G05 D269
G05 D0
G01 Y50
G05 D9435
G05 D221
G05 D842
G05 D262
G05 D0
G01 Y50
G05 D9410
G05 D205
G05 D896
G05 D255
G05 D0
G01 Y50
G05 D9386
G05 D210
G05 D921
G05 D246
G05 D0
G01 Y50
G05 D9375
G05 D198
G05 D943
G05 D239
G05 D0
G01 Y50
G05 D9377
G05 D178
G05 D960
G05 D233
G05 D0
G01 Y50
G05 D9379
G05 D178
G05 D957
G05 D227
G05 D0
G01 Y50
G05 D9381
G05 D178
G05 D949
G05 D225
G05 D0
G01 Y50
G05 D9383
G05 D177
G05 D925
G05 D241
G05 D0
G01 Y50
G05 D9393
G05 D191
G05 D876
G05 D256
G05 D0
G01 Y50
G05 D9409
G05 D199
G05 D829
G05 D259
G05 D0
G01 Y50
G05 D9426
G05 D223
G05 D764
G05 D245
G05 D0
G01 Y50
G05 D9442
G05 D248
G05 D660
G05 D269
G05 D0
G01 Y50
G05 D9479
G05 D289
G05 D509
G05 D302
G05 D0
G01 Y50
G05 D9516
G05 D381
G05 D255
G05 D387
G05 D0
G01 Y50
G05 D9552
G05 D943
G05 D0
G01 Y50
G05 D9618
G05 D805
G05 D0
G01 Y50
G05 D9685
G05 D664
G05 D0
G01 Y50
G05 D9831
G05 D426
G05 D0
; Disable laser
M20
G01 Z39
; Layer 1 at height 0.597976666667
; Enable laser
M19
G01 Y-9242
G05 D9756
G05 D405
G05 D0
G01 Y50
G05 D9651
G05 D657
G05 D0
G01 Y50
G05 D9578
G05 D800
G05 D0
G01 Y50
G05 D9506
G05 D939
G05 D0
G01 Y50
G05 D9460
G05 D370
G05 D287
G05 D365
G05 D0
G01 Y50
G05 D9420
G05 D294
G05 D522
G05 D284
G05 D0
G01 Y50
G05 D9382
G05 D261
G05 D669
G05 D247
G05 D0
G01 Y50
G05 D9344
G05 D238
G05 D770
G05 D222
G05 D0
G01 Y50
G05 D9307
G05 D251
G05 D835
G05 D197
G05 D0
G01 Y50
G05 D9283
G05 D249
G05 D881
G05 D191
G05 D0
G01 Y50
G05 D9276
G05 D233
G05 D928
G05 D178
G05 D0
G01 Y50
G05 D9269
G05 D217
G05 D951
G05 D180
G05 D0
G01 Y50
G05 D9261
G05 D221
G05 D955
G05 D182
G05 D0
G01 Y50
G05 D9254
G05 D226
G05 D958
G05 D183
G05 D0
G01 Y50
G05 D9246
G05 D232
G05 D943
G05 D201
G05 D0
G01 Y50
G05 D9239
G05 D238
G05 D925
G05 D207
G05 D0
G01 Y50
G05 D9233
G05 D249
G05 D902
G05 D202
G05 D0
G01 Y50
G05 D9240
G05 D254
G05 D851
G05 D218
G05 D0
G01 Y50
G05 D9246
G05 D261
G05 D794
G05 D237
G05 D0
G01 Y50
G05 D9252
G05 D284
G05 D684
G05 D270
G05 D0
G01 Y50
G05 D9258
G05 D315
G05 D418
G05 D439
G05 D0
G01 Y50
G05 D9267
G05 D345
G05 D376
G05 D383
G05 D0
G01 Y50
G05 D9289
G05 D376
G05 D468
G05 D27
G05 D0
G01 Y50
G05 D7050
G05 D475
G05 D1786
G05 D408
G05 D2752
G05 D475
G05 D0
G01 Y50
G05 D6920
G05 D710
G05 D1703
G05 D442
G05 D2591
G05 D710
G05 D0
G01 Y50
G05 D6850
G05 D875
G05 D1630
G05 D515
G05 D2401
G05 D875
G05 D0
G01 Y50
G05 D6788
G05 D387
G05 D190
G05 D414
G05 D1604
G05 D594
G05 D2238
G05 D414
G05 D190
G05 D387
G05 D0
G01 Y50
G05 D6739
G05 D259
G05 D543
G05 D293
G05 D1597
G05 D657
G05 D2073
G05 D293
G05 D543
G05 D259
G05 D0
G01 Y50
G05 D6698
G05 D231
G05 D706
G05 D237
G05 D1608
G05 D719
G05 D1925
G05 D237
G05 D706
G05 D231
G05 D0
G01 Y50
G05 D6656
G05 D217
G05 D814
G05 D210
G05 D1633
G05 D768
G05 D1798
