; Generated by GRSlicer ('0.1',)
G01 Z101
; Layer 0 at height 0.101
; Enable laser
M19
G01 Y-39939
G05 D5985
G05 D1670
G06 E10
G01 Y200
G05 D4959
G05 D3416
G06 E10
G01 Y200
G05 D4131
G05 D4963
G06 E10
G01 Y200
G05 D3838
G05 D5976
G06 E10
G01 Y200
G05 D3545
G05 D6651
G06 E10
G01 Y200
G05 D3252
G05 D7208
G06 E10
G01 Y200
G05 D2958
G05 D7765
G06 E10
G01 Y200
G05 D2665
G05 D8322
G06 E10
G01 Y200
G05 D2372
G05 D8879
G06 E10
G01 Y200
G05 D2082
G05 D9433
G06 E10
G01 Y200
G05 D1878
G05 D9783
G06 E10
G01 Y200
G05 D1720
G05 D4436
G05 D1349
G05 D4303
G06 E10
G01 Y200
G05 D1561
G05 D3505
G05 D3389
G05 D3499
G06 E10
G01 Y200
G05 D1403
G05 D3179
G05 D4386
G05 D3134
G06 E10
G01 Y200
G05 D1244
G05 D3048
G05 D5023
G05 D2933
G06 E10
G01 Y200
G05 D1086
G05 D2917
G05 D5661
G05 D2731
G06 E10
G01 Y200
G05 D927
G05 D2786
G05 D6295
G05 D2537
G06 E10
G01 Y200
G05 D769
G05 D2655
G05 D6775
G05 D2445
G06 E10
G01 Y200
G05 D610
G05 D2524
G05 D7226
G05 D2348
G06 E10
G01 Y200
G05 D451
G05 D2459
G05 D7613
G05 D2250
G06 E10
G01 Y200
G05 D293
G05 D2520
G05 D7872
G05 D2153
G06 E10
G01 Y200
G05 D134
G05 D2585
G05 D8127
G05 D2055
G06 E10
G01 Y200
G05 D-17
G05 D2645
G05 D8359
G05 D1982
G06 E10
G01 Y200
G05 D-123
G05 D2658
G05 D8547
G05 D1951
G06 E10
G01 Y200
G05 D-153
G05 D2595
G05 D8741
G05 D1915
G06 E10
G01 Y200
G05 D-182
G05 D2531
G05 D8935
G05 D1877
G06 E10
G01 Y200
G05 D-212
G05 D2468
G05 D9129
G05 D1827
G06 E10
G01 Y200
G05 D-241
G05 D2404
G05 D9289
G05 D1767
G06 E10
G01 Y200
G05 D-271
G05 D2341
G05 D9384
G05 D1772
G06 E10
G01 Y200
G05 D-300
G05 D2278
G05 D9485
G05 D1772
G06 E10
G01 Y200
G05 D-330
G05 D2245
G05 D9555
G05 D1771
G06 E10
G01 Y200
G05 D-359
G05 D2268
G05 D9570
G05 D1771
G06 E10
G01 Y200
G05 D-389
G05 D2293
G05 D9583
G05 D1770
G06 E10
G01 Y200
G05 D-418
G05 D2318
G05 D9595
G05 D1770
G06 E10
G01 Y200
G05 D-448
G05 D2343
G05 D9608
G05 D1769
G06 E10
G01 Y200
G05 D-477
G05 D2368
G05 D9585
G05 D1804
G06 E10
G01 Y200
G05 D-507
G05 D2393
G05 D9497
G05 D1904
G06 E10
G01 Y200
G05 D-536
G05 D2418
G05 D9410
G05 D2004
G06 E10
G01 Y200
G05 D-566
G05 D2443
G05 D9322
G05 D2096
G06 E10
G01 Y200
G05 D-595
G05 D2468
G05 D9234
G05 D2093
G06 E10
G01 Y200
G05 D-625
G05 D2492
G05 D9147
G05 D2088
G06 E10
G01 Y200
G05 D-654
G05 D2537
G05 D9041
G05 D2078
G06 E10
G01 Y200
G05 D-648
G05 D2582
G05 D8908
G05 D2060
G06 E10
G01 Y200
G05 D-623
G05 D2610
G05 D8681
G05 D2135
G06 E10
G01 Y200
G05 D-598
G05 D2638
G05 D8452
G05 D2211
G06 E10
G01 Y200
G05 D-573
G05 D2667
G05 D8224
G05 D2287
G06 E10
G01 Y200
G05 D-548
G05 D2695
G05 D7995
G05 D2363
G06 E10
G01 Y200
G05 D-524
G05 D2723
G05 D7766
G05 D2439
G06 E10
G01 Y200
G05 D-499
G05 D2803
G05 D7486
G05 D2446
G06 E10
G01 Y200
G05 D-474
G05 D2931
G05 D6928
G05 D2608
G06 E10
G01 Y200
G05 D-449
G05 D3059
G05 D6190
G05 D2945
G06 E10
G01 Y200
G05 D-424
G05 D3188
G05 D4228
G05 D4505
G06 E10
G01 Y200
G05 D-400
G05 D3316
G05 D3960
G05 D4370
G06 E10
G01 Y200
G05 D-375
G05 D3444
G05 D3746
G05 D4182
G06 E10
G01 Y200
G05 D-350
G05 D3573
G05 D3628
G05 D3897
G06 E10
G01 Y200
G05 D-287
G05 D3714
G05 D3458
G05 D3613
G06 E10
G01 Y200
G05 D-198
G05 D3846
G05 D4406
G05 D952
G06 E10
G01 Y200
G05 D-20722
G05 D1033
G05 D19577
G05 D3980
G05 D29917
G05 D1033
G06 E10
G01 Y200
G05 D-21962
G05 D3541
G05 D18396
G05 D4114
G05 D28429
G05 D3541
G06 E10
G01 Y200
G05 D-22555
G05 D4983
G05 D17634
G05 D4247
G05 D27359
G05 D4983
G06 E10
G01 Y200
G05 D-23054
G05 D5901
G05 D17301
G05 D4381
G05 D26718
G05 D5901
G06 E10
G01 Y200
G05 D-23553
G05 D6820
G05 D16968
G05 D4515
G05 D26078
G05 D6820
G06 E10
G01 Y200
G05 D-24009
G05 D7696
G05 D16636
G05 D4661
G05 D25425
G05 D7696
G06 E10
G01 Y200
G05 D-24257
G05 D8364
G05 D16303
G05 D4994
G05 D24586
G05 D8364
G06 E10
G01 Y200
G05 D-24502
G05 D8902
G05 D16097
G05 D5339
G05 D23861
G05 D8902
G06 E10
G01 Y200
G05 D-24748
G05 D9365
G05 D15966
G05 D5684
G05 D23211
G05 D9365
G06 E10
G01 Y200
G05 D-24993
G05 D9829
G05 D15835
G05 D6028
G05 D22561
G05 D9829
G06 E10
G01 Y200
G05 D-25238
G05 D4413
G05 D1212
G05 D4667
G05 D15705
G05 D6377
G05 D21906
G05 D4667
G05 D1212
G05 D4413
G06 E10
G01 Y200
G05 D-25452
G05 D3605
G05 D3194
G05 D3925
G05 D15678
G05 D6624
G05 D21248
G05 D3925
G05 D3194
G05 D3605
G06 E10
G01 Y200
G05 D-25616
G05 D3184
G05 D4494
G05 D3428
G05 D15664
G05 D6860
G05 D20590
G05 D3428
G05 D4494
G05 D3184
G06 E10
G01 Y200
G05 D-25779
G05 D2766
G05 D5551
G05 D3171
G05 D15649
G05 D7095
G05 D19932
G05 D3171
G05 D5551
G05 D2766
G06 E10
G01 Y200
G05 D-25943
G05 D2643
G05 D6313
G05 D2801
G05 D15748
G05 D7330
G05 D19388
G05 D2801
G05 D6313
G05 D2643
G06 E10
G01 Y200
G05 D-26106
G05 D2571
G05 D6840
G05 D2613
G05 D15848
G05 D7566
G05 D18844
G05 D2613
G05 D6840
G05 D2571
G06 E10
G01 Y200
G05 D-26269
G05 D2499
G05 D7285
G05 D2508
G05 D15948
G05 D7798
G05 D18303
G05 D2508
G05 D7285
G05 D2499
G06 E10
G01 Y200
G05 D-26432
G05 D2427
G05 D7730
G05 D2403
G05 D16048
G05 D7950
G05 D17843
G05 D2403
G05 D7730
G05 D2427
G06 E10
G01 Y200
G05 D-26567
G05 D2380
G05 D8120
G05 D2298
G05 D16148
G05 D8114
G05 D17371
G05 D2298
G05 D8120
G05 D2380
G06 E10
G01 Y200
G05 D-26623
G05 D2277
G05 D8430
G05 D2252
G05 D16247
G05 D8278
G05 D16898
G05 D2252
G05 D8430
G05 D2277
G06 E10
G01 Y200
G05 D-26677
G05 D2170
G05 D8694
G05 D2252
G05 D16358
G05 D8432
G05 D16426
G05 D2252
G05 D8694
G05 D2170
G06 E10
G01 Y200
G05 D-26731
G05 D2064
G05 D8959
G05 D2252
G05 D16619
G05 D8435
G05 D15953
G05 D2252
G05 D8959
G05 D2064
G06 E10
G01 Y200
G05 D-26784
G05 D1958
G05 D9223
G05 D2250
G05 D16900
G05 D8369
G05 D15533
G05 D2250
G05 D9223
G05 D1958
G06 E10
G01 Y200
G05 D-26838
G05 D1925
G05 D9414
G05 D2196
G05 D17233
G05 D8277
G05 D15190
G05 D2196
G05 D9414
G05 D1925
G06 E10
G01 Y200
G05 D-26892
G05 D1929
G05 D9567
G05 D2143
G05 D17565
G05 D8187
G05 D14845
G05 D2143
G05 D9567
G05 D1929
G06 E10
G01 Y200
G05 D-26945
G05 D1935
G05 D9714
G05 D2096
G05 D17897
G05 D8097
G05 D14500
G05 D2096
G05 D9714
G05 D1935
G06 E10
G01 Y200
G05 D-26999
G05 D1941
G05 D9806
G05 D2104
G05 D18229
G05 D8006
G05 D14155
G05 D2104
G05 D9806
G05 D1941
G06 E10
G01 Y200
G05 D-27052
G05 D1947
G05 D9898
G05 D2111
G05 D18554
G05 D7923
G05 D13810
G05 D2111
G05 D9898
G05 D1947
G06 E10
G01 Y200
G05 D-27106
G05 D1953
G05 D9990
G05 D2119
G05 D18850
G05 D7869
G05 D13465
G05 D2119
G05 D9990
G05 D1953
G06 E10
G01 Y200
G05 D-27132
G05 D1930
G05 D10082
G05 D2126
G05 D19141
G05 D7820
G05 D13120
G05 D2126
G05 D10082
G05 D1930
G06 E10
G01 Y200
G05 D-27134
G05 D1885
G05 D10173
G05 D2134
G05 D19432
G05 D7723
G05 D12823
G05 D2134
G05 D10173
G05 D1885
G06 E10
G01 Y200
G05 D-27133
G05 D1863
G05 D10238
G05 D2141
G05 D19723
G05 D7568
G05 D12584
G05 D2141
G05 D10238
G05 D1863
G06 E10
G01 Y200
G05 D-27132
G05 D1864
G05 D10280
G05 D2149
G05 D20014
G05 D7408
G05 D12350
G05 D2149
G05 D10280
G05 D1864
G06 E10
G01 Y200
G05 D-27131
G05 D1867
G05 D10310
G05 D2116
G05 D20356
G05 D7247
G05 D12168
G05 D2116
G05 D10310
G05 D1867
G06 E10
G01 Y200
G05 D-27129
G05 D1869
G05 D10288
G05 D2125
G05 D20686
G05 D7108
G05 D11995
G05 D2125
G05 D10288
G05 D1869
G06 E10
G01 Y200
G05 D-27128
G05 D1872
G05 D10267
G05 D2134
G05 D20996
G05 D6989
G05 D11822
G05 D2134
G05 D10267
G05 D1872
G06 E10
G01 Y200
G05 D-27127
G05 D1874
G05 D10246
G05 D2142
G05 D21305
G05 D6870
G05 D11649
G05 D2142
G05 D10246
G05 D1874
G06 E10
G01 Y200
G05 D-27126
G05 D1876
G05 D10225
G05 D2150
G05 D21615
G05 D6751
G05 D11476
G05 D2150
G05 D10225
G05 D1876
G06 E10
G01 Y200
G05 D-27055
G05 D1856
G05 D10157
G05 D2159
G05 D21898
G05 D6659
G05 D11303
G05 D2159
G05 D10157
G05 D1856
G06 E10
G01 Y200
G05 D-26977
G05 D1826
G05 D10092
G05 D2167
G05 D22131
G05 D6617
G05 D11130
G05 D2167
G05 D10092
G05 D1826
G06 E10
G01 Y200
G05 D-26900
G05 D1797
G05 D10026
G05 D2175
G05 D22365
G05 D6574
G05 D10957
G05 D2175
G05 D10026
G05 D1797
G06 E10
G01 Y200
G05 D-26822
G05 D1768
G05 D9960
G05 D2184
G05 D22599
G05 D6531
G05 D10784
G05 D2184
G05 D9960
G05 D1768
G06 E10
G01 Y200
G05 D-26745
G05 D1740
G05 D9895
G05 D2192
G05 D22833
G05 D6487
G05 D10611
G05 D2192
G05 D9895
G05 D1740
G06 E10
G01 Y200
G05 D-26668
G05 D1788
G05 D9752
G05 D2201
G05 D23067
G05 D6440
G05 D10443
G05 D2201
G05 D9752
G05 D1788
G06 E10
G01 Y200
G05 D-26591
G05 D1874
G05 D9571
G05 D2209
G05 D23301
G05 D6273
G05 D10394
G05 D2209
G05 D9571
G05 D1874
G06 E10
G01 Y200
G05 D-26513
G05 D1958
G05 D9392
G05 D2217
G05 D23411
G05 D6224
G05 D10350
G05 D2217
G05 D9392
G05 D1958
G06 E10
G01 Y200
G05 D-26436
G05 D2043
G05 D9212
G05 D2226
G05 D23486
G05 D6210
G05 D10307
G05 D2226
G05 D9212
G05 D2043
G06 E10
G01 Y200
G05 D-26281
G05 D2050
G05 D9022
G05 D2245
G05 D23560
G05 D6197
G05 D10263
G05 D2245
G05 D9023
G05 D2050
G06 E10
G01 Y200
G05 D-26120
G05 D2052
G05 D6247
G05 D478
G05 D2079
G05 D2292
G05 D23634
G05 D6183
G05 D10219
G05 D2289
G05 D2081
G05 D478
G05 D6247
G05 D2052
G06 E10
G01 Y200
G05 D-25961
G05 D2104
G05 D5769
G05 D970
G05 D1799
G05 D2316
G05 D23731
G05 D6170
G05 D10196
G05 D2313
G05 D1804
G05 D970
G05 D5769
G05 D2104
G06 E10
G01 Y200
G05 D-25802
G05 D2364
G05 D5083
G05 D1383
G05 D1598
G05 D2335
G05 D23833
G05 D6156
G05 D10178
G05 D2332
G05 D1605
G05 D1383
G05 D5083
G05 D2364
G06 E10
G01 Y200
G05 D-25643
G05 D2639
G05 D4382
G05 D1415
G05 D1778
G05 D2354
G05 D23935
G05 D6143
G05 D10159
G05 D2351
G05 D1787
G05 D1415
G05 D4382
G05 D2639
G06 E10
G01 Y200
G05 D-25484
G05 D2914
G05 D3493
G05 D1635
G05 D1957
G05 D2373
G05 D24019
G05 D6147
G05 D10141
G05 D2370
G05 D1969
G05 D1635
G05 D3493
G05 D2914
G06 E10
G01 Y200
G05 D-25325
G05 D3593
G05 D2006
G05 D2049
G05 D2136
G05 D2392
G05 D24075
G05 D6180
G05 D10123
G05 D2389
G05 D2150
G05 D2049
G05 D2006
G05 D3593
G06 E10
G01 Y200
G05 D-25165
G05 D4679
G05 D112
G05 D2463
G05 D2316
G05 D2411
G05 D24127
G05 D6216
G05 D10104
G05 D2408
G05 D2332
G05 D2463
G05 D112
G05 D4679
G06 E10
G01 Y200
G05 D-25006
G05 D6862
G05 D2495
G05 D2430
G05 D24180
G05 D6252
G05 D10086
G05 D2427
G05 D2514
G05 D6862
G06 E10
G01 Y200
G05 D-24720
G05 D6273
G05 D2742
G05 D2449
G05 D24232
G05 D6288
G05 D10068
G05 D2445
G05 D2763
G05 D6273
G06 E10
G01 Y200
G05 D-24273
G05 D5452
G05 D3063
G05 D2467
G05 D24285
G05 D6323
G05 D10050
G05 D2464
G05 D3086
G05 D5452
G06 E10
G01 Y200
G05 D-23827
G05 D4630
G05 D3383
G05 D2486
G05 D24337
G05 D6359
G05 D10031
G05 D2483
G05 D3408
G05 D4630
G06 E10
G01 Y200
G05 D-23381
G05 D3808
G05 D3704
G05 D2505
G05 D24390
G05 D6395
G05 D10013
G05 D2502
G05 D3731
G05 D3808
G06 E10
G01 Y200
G05 D-22954
G05 D3005
G05 D4022
G05 D2526
G05 D24443
G05 D6431
G05 D9995
G05 D2524
G05 D4051
G05 D3005
G06 E10
G01 Y200
G05 D-15984
G05 D2549
G05 D24495
G05 D6432
G05 D10012
G05 D2548
G06 E10
G01 Y200
G05 D-16030
G05 D2557
G05 D24549
G05 D6398
G05 D10063
G05 D2560
G06 E10
G01 Y200
G05 D-16075
G05 D2564
G05 D24477
G05 D6498
G05 D10112
G05 D2567
G06 E10
G01 Y200
G05 D-16121
G05 D2594
G05 D24372
G05 D6606
G05 D10144
G05 D2589
G06 E10
G01 Y200
G05 D-16167
G05 D2641
G05 D24252
G05 D6714
G05 D10155
G05 D2633
G06 E10
G01 Y200
G05 D-16212
G05 D2689
G05 D24130
G05 D6822
G05 D10164
G05 D2680
G06 E10
G01 Y200
G05 D-16258
G05 D2737
G05 D24007
G05 D6930
G05 D10172
G05 D2726
G06 E10
G01 Y200
G05 D-16303
G05 D2786
G05 D23885
G05 D7038
G05 D10181
G05 D2772
G06 E10
G01 Y200
G05 D-16349
G05 D2834
G05 D23763
G05 D7145
G05 D10189
G05 D2819
G06 E10
G01 Y200
G05 D-16394
G05 D2882
G05 D23640
G05 D7253
G05 D10198
G05 D2865
G06 E10
G01 Y200
G05 D-16440
G05 D2931
G05 D23518
G05 D7361
G05 D10207
G05 D2911
G06 E10
G01 Y200
G05 D-16485
G05 D2979
G05 D23396
G05 D7469
G05 D10215
G05 D2958
G06 E10
G01 Y200
G05 D-16531
G05 D3028
G05 D23274
G05 D7577
G05 D10224
G05 D3004
G06 E10
G01 Y200
G05 D-16582
G05 D3082
G05 D23151
G05 D7685
G05 D10232
G05 D3052
G06 E10
G01 Y200
G05 D-16636
G05 D3138
G05 D22910
G05 D7912
G05 D10241
G05 D3107
G06 E10
G01 Y200
G05 D-16692
G05 D3198
G05 D22601
G05 D8207
G05 D10250
G05 D3164
G06 E10
G01 Y200
G05 D-16749
G05 D3257
G05 D22293
G05 D8501
G05 D10258
G05 D3223
G06 E10
G01 Y200
G05 D-16806
G05 D3313
G05 D21988
G05 D8795
G05 D10268
G05 D3280
G06 E10
G01 Y200
G05 D-16863
G05 D3369
G05 D21683
G05 D9076
G05 D10294
G05 D3335
G06 E10
G01 Y200
G05 D-16919
G05 D3425
G05 D21378
G05 D9336
G05 D10342
G05 D3389
G06 E10
G01 Y200
G05 D-16976
G05 D3481
G05 D21073
G05 D9595
G05 D10390
G05 D3443
G06 E10
G01 Y200
G05 D-17033
G05 D3537
G05 D20768
G05 D9854
G05 D10439
G05 D3497
G06 E10
G01 Y200
G05 D-17090
G05 D3593
G05 D20463
G05 D10113
G05 D10487
G05 D3552
G06 E10
G01 Y200
G05 D-17146
G05 D3649
G05 D20188
G05 D10342
G05 D10535
G05 D3606
G06 E10
G01 Y200
G05 D-17203
G05 D3706
G05 D19871
G05 D10614
G05 D10583
G05 D3660
G06 E10
G01 Y200
G05 D-17259
G05 D3764
G05 D19517
G05 D10918
G05 D10631
G05 D3715
G06 E10
G01 Y200
G05 D-17301
G05 D3857
G05 D19115
G05 D11223
G05 D10676
G05 D3770
G06 E10
G01 Y200
G05 D-17294
G05 D3908
G05 D18710
G05 D11524
G05 D10680
G05 D3847
G06 E10
G01 Y200
G05 D-17281
G05 D3951
G05 D18307
G05 D11823
G05 D10671
G05 D3897
G06 E10
G01 Y200
G05 D-17268
G05 D3995
G05 D17905
G05 D12122
G05 D10661
G05 D3941
G06 E10
G01 Y200
G05 D-17254
G05 D4039
G05 D17503
G05 D12420
G05 D10651
G05 D3984
G06 E10
G01 Y200
G05 D-17241
G05 D4082
G05 D17106
G05 D12719
G05 D10637
G05 D4027
G06 E10
G01 Y200
G05 D-17228
G05 D4126
G05 D16709
G05 D13111
G05 D10529
G05 D4070
G06 E10
G01 Y200
G05 D-17215
G05 D4170
G05 D16312
G05 D13530
G05 D10393
G05 D4114
G06 E10
G01 Y200
G05 D-17201
G05 D4328
G05 D15801
G05 D13950
G05 D10257
G05 D4157
G06 E10
G01 Y200
G05 D-17188
G05 D4498
G05 D15277
G05 D14369
G05 D10042
G05 D4280
G06 E10
G01 Y200
G05 D-17175
G05 D4669
G05 D14690
G05 D14845
G05 D9785
G05 D4451
G06 E10
G01 Y200
G05 D-17162
G05 D4839
G05 D14094
G05 D15693
G05 D9166
G05 D4622
G06 E10
G01 Y200
G05 D-17151
G05 D5013
G05 D13497
G05 D16555
G05 D8533
G05 D4793
G06 E10
G01 Y200
G05 D-17094
G05 D5254
G05 D12786
G05 D17416
G05 D7901
G05 D4965
G06 E10
G01 Y200
G05 D-17009
G05 D5566
G05 D11976
G05 D18278
G05 D7223
G05 D5161
G06 E10
G01 Y200
G05 D-16924
G05 D5878
G05 D11166
G05 D19139
G05 D6415
G05 D5440
G06 E10
G01 Y200
G05 D-16839
G05 D6547
G05 D9190
G05 D20809
G05 D5607
G05 D5719
G06 E10
G01 Y200
G05 D-16754
G05 D7372
G05 D5911
G05 D23627
G05 D4642
G05 D6154
G06 E10
G01 Y200
G05 D-16669
G05 D38375
G05 D2259
G05 D6906
G06 E10
G01 Y200
G05 D-16585
G05 D47375
G06 E10
G01 Y200
G05 D-16500
G05 D47209
G06 E10
G01 Y200
G05 D-16415
G05 D47043
G06 E10
G01 Y200
G05 D-16330
G05 D46877
G06 E10
G01 Y200
G05 D-16245
G05 D46711
G06 E10
G01 Y200
G05 D-16160
G05 D46546
G06 E10
G01 Y200
G05 D-16075
G05 D46380
G06 E10
G01 Y200
G05 D-15995
G05 D46219
G06 E10
G01 Y200
G05 D-15795
G05 D45940
G06 E10
G01 Y200
G05 D-15526
G05 D45564
G06 E10
G01 Y200
G05 D-15256
G05 D45079
G06 E10
G01 Y200
G05 D-14987
G05 D44596
G06 E10
G01 Y200
G05 D-14718
G05 D44112
G06 E10
G01 Y200
G05 D-14449
G05 D43628
G06 E10
G01 Y200
G05 D-14180
G05 D43144
G06 E10
G01 Y200
G05 D-13910
G05 D42661
G06 E10
G01 Y200
G05 D-13641
G05 D42177
G06 E10
G01 Y200
G05 D-13284
G05 D41605
G06 E10
G01 Y200
G05 D-12921
G05 D41018
G06 E10
G01 Y200
G05 D-12559
G05 D40275
G06 E10
G01 Y200
G05 D-12196
G05 D39533
G06 E10
G01 Y200
G05 D-11833
G05 D38790
G06 E10
G01 Y200
G05 D-11471
G05 D38047
G06 E10
G01 Y200
G05 D-11108
G05 D37304
G06 E10
G01 Y200
G05 D-10746
G05 D36562
G06 E10
G01 Y200
G05 D-10383
G05 D35819
G06 E10
G01 Y200
G05 D-10021
G05 D35077
G06 E10
G01 Y200
G05 D-9423
G05 D34106
G06 E10
G01 Y200
G05 D-8824
G05 D32746
G06 E10
G01 Y200
G05 D-8226
G05 D31313
G06 E10
G01 Y200
G05 D-7627
G05 D29879
G06 E10
G01 Y200
G05 D-7029
G05 D28446
G06 E10
G01 Y200
G05 D-6493
G05 D27146
G06 E10
G01 Y200
G05 D-6175
G05 D26490
G06 E10
G01 Y200
G05 D-5828
G05 D25804
G06 E10
G01 Y200
G05 D-5510
G05 D25138
G06 E10
G01 Y200
G05 D-6374
G05 D26846
G06 E10
G01 Y200
G05 D-7681
G05 D29461
G06 E10
G01 Y200
G05 D-8344
G05 D30785
G06 E10
G01 Y200
G05 D-9006
G05 D32110
G06 E10
G01 Y200
G05 D-9668
G05 D33434
G06 E10
G01 Y200
G05 D-10330
G05 D34758
G06 E10
G01 Y200
G05 D-10992
G05 D36083
G06 E10
G01 Y200
G05 D-11585
G05 D37269
G06 E10
G01 Y200
G05 D-12064
G05 D38226
G06 E10
G01 Y200
G05 D-12542
G05 D39182
G06 E10
G01 Y200
G05 D-13020
G05 D40139
G06 E10
G01 Y200
G05 D-13499
G05 D41096
G06 E10
G01 Y200
G05 D-13977
G05 D42053
G06 E10
G01 Y200
G05 D-14420
