; Generated by GRSlicer ('0.1',)
G01 Z50
; Layer 0 at height 0.501
; Enable laser
M19
G01 Y7602
G05 D9343
G05 D1316
G05 D0
G01 Y102
G05 D9044
G05 D1911
G05 D0
G01 Y102
G05 D8830
G05 D2341
G05 D0
G01 Y102
G05 D8656
G05 D2688
G05 D0
G01 Y102
G05 D8509
G05 D2982
G05 D0
G01 Y102
G05 D8382
G05 D3236
G05 D0
G01 Y102
G05 D8270
G05 D3460
G05 D0
G01 Y102
G05 D8170
G05 D3659
G05 D0
G01 Y102
G05 D8080
G05 D3838
G05 D0
G01 Y102
G05 D8001
G05 D3997
G05 D0
G01 Y102
G05 D7930
G05 D4140
G05 D0
G01 Y102
G05 D7865
G05 D4269
G05 D0
G01 Y102
G05 D7806
G05 D4386
G05 D0
G01 Y102
G05 D7756
G05 D4487
G05 D0
G01 Y102
G05 D7710
G05 D4579
G05 D0
G01 Y102
G05 D7669
G05 D4661
G05 D0
G01 Y102
G05 D7634
G05 D4731
G05 D0
G01 Y102
G05 D7603
G05 D4793
G05 D0
G01 Y102
G05 D7577
G05 D4845
G05 D0
G01 Y102
G05 D7556
G05 D4153
G05 D0
G01 Y102
G05 D7538
G05 D4171
G05 D0
G01 Y102
G05 D7527
G05 D4182
G05 D0
G01 Y102
G05 D7517
G05 D4192
G05 D0
G01 Y102
G05 D7514
G05 D4195
G05 D0
G01 Y102
G05 D7514
G05 D4195
G05 D0
G01 Y102
G05 D7517
G05 D4192
G05 D0
G01 Y102
G05 D7527
G05 D4182
G05 D0
G01 Y102
G05 D7538
G05 D4171
G05 D0
G01 Y102
G05 D7556
G05 D4153
G05 D0
G01 Y102
G05 D7577
G05 D4845
G05 D0
G01 Y102
G05 D7603
G05 D4793
G05 D0
G01 Y102
G05 D7634
G05 D4731
G05 D0
G01 Y102
G05 D7669
G05 D4661
G05 D0
G01 Y102
G05 D7710
G05 D4579
G05 D0
G01 Y102
G05 D7756
G05 D4487
G05 D0
G01 Y102
G05 D7806
G05 D4386
G05 D0
G01 Y102
G05 D7865
G05 D4269
G05 D0
G01 Y102
G05 D7930
G05 D4140
G05 D0
G01 Y102
G05 D8001
G05 D3997
G05 D0
G01 Y102
G05 D8080
G05 D3838
G05 D0
G01 Y102
G05 D8170
G05 D3659
G05 D0
G01 Y102
G05 D8270
G05 D3461
G05 D0
G01 Y102
G05 D8382
G05 D3237
G05 D0
G01 Y102
G05 D8509
G05 D2982
G05 D0
G01 Y102
G05 D8656
G05 D2688
G05 D0
G01 Y102
G05 D8830
G05 D2341
G05 D0
G01 Y102
G05 D9044
G05 D1911
G05 D0
G01 Y102
G05 D9343
G05 D1316
G05 D0
; Disable laser
M20
G01 Z99
; Layer 1 at height 1.49599
; Enable laser
M19
G01 Y-4795
G05 D9444
G05 D1113
G05 D0
G01 Y102
G05 D9112
G05 D1776
G05 D0
G01 Y102
G05 D8883
G05 D2234
G05 D0
G01 Y102
G05 D8703
G05 D2595
G05 D0
G01 Y102
G05 D8551
G05 D2898
G05 D0
G01 Y102
G05 D8420
G05 D3160
G05 D0
G01 Y102
G05 D8306
G05 D3389
G05 D0
G01 Y102
G05 D8204
G05 D3592
G05 D0
G01 Y102
G05 D8112
G05 D3775
G05 D0
G01 Y102
G05 D8032
G05 D3935
G05 D0
G01 Y102
G05 D7960
G05 D4080
G05 D0
G01 Y102
G05 D7894
G05 D4211
G05 D0
G01 Y102
G05 D7835
G05 D4328
G05 D0
G01 Y102
G05 D7784
G05 D4432
G05 D0
G01 Y102
G05 D7737
G05 D4526
G05 D0
G01 Y102
G05 D7696
G05 D4608
G05 D0
G01 Y102
G05 D7660
G05 D4679
G05 D0
G01 Y102
G05 D7628
G05 D4742
G05 D0
G01 Y102
G05 D7603
G05 D4793
G05 D0
G01 Y102
G05 D7581
G05 D4128
G05 D0
G01 Y102
G05 D7563
G05 D4146
G05 D0
G01 Y102
G05 D7552
G05 D4157
G05 D0
G01 Y102
G05 D7542
G05 D4167
G05 D0
G01 Y102
G05 D7539
G05 D4170
G05 D0
G01 Y102
G05 D7539
G05 D4170
G05 D0
G01 Y102
G05 D7542
G05 D4167
G05 D0
G01 Y102
G05 D7552
G05 D4157
G05 D0
G01 Y102
G05 D7563
G05 D4146
G05 D0
G01 Y102
G05 D7581
G05 D4128
G05 D0
G01 Y102
G05 D7603
G05 D4793
G05 D0
G01 Y102
G05 D7628
G05 D4742
G05 D0
G01 Y102
G05 D7660
G05 D4679
G05 D0
G01 Y102
G05 D7696
G05 D4608
G05 D0
G01 Y102
G05 D7737
G05 D4525
G05 D0
G01 Y102
G05 D7784
G05 D4432
G05 D0
G01 Y102
G05 D7835
G05 D4329
G05 D0
G01 Y102
G05 D7894
G05 D4211
G05 D0
G01 Y102
G05 D7960
G05 D4080
G05 D0
G01 Y102
G05 D8032
G05 D3935
G05 D0
G01 Y102
G05 D8112
G05 D3775
G05 D0
G01 Y102
G05 D8204
G05 D3592
G05 D0
G01 Y102
G05 D8306
G05 D3388
G05 D0
G01 Y102
G05 D8420
G05 D3160
G05 D0
G01 Y102
G05 D8551
G05 D2899
G05 D0
G01 Y102
G05 D8703
G05 D2595
G05 D0
G01 Y102
G05 D8883
G05 D2233
G05 D0
G01 Y102
G05 D9112
G05 D1777
G05 D0
G01 Y102
G05 D9444
G05 D1114
G05 D0
; Disable laser
M20
G01 Z99
; Layer 2 at height 2.49098
; Enable laser
M19
G01 Y-4795
G05 D9563
G05 D873
G05 D0
G01 Y102
G05 D9184
G05 D1633
G05 D0
G01 Y102
G05 D8937
G05 D2124
G05 D0
G01 Y102
G05 D8750
G05 D2500
G05 D0
G01 Y102
G05 D8593
G05 D2813
G05 D0
G01 Y102
G05 D8459
G05 D3082
G05 D0
G01 Y102
G05 D8342
G05 D3316
G05 D0
G01 Y102
G05 D8237
G05 D3524
G05 D0
G01 Y102
G05 D8145
G05 D3708
G05 D0
G01 Y102
G05 D8064
G05 D3872
G05 D0
G01 Y102
G05 D7990
G05 D4020
G05 D0
G01 Y102
G05 D7923
G05 D4153
G05 D0
G01 Y102
G05 D7864
G05 D4271
G05 D0
G01 Y102
G05 D7812
G05 D4377
G05 D0
G01 Y102
G05 D7764
G05 D4472
G05 D0
G01 Y102
G05 D7722
G05 D4554
G05 D0
G01 Y102
G05 D7687
G05 D4627
G05 D0
G01 Y102
G05 D7654
G05 D4691
G05 D0
G01 Y102
G05 D7629
G05 D4741
G05 D0
G01 Y102
G05 D7607
G05 D4102
G05 D0
G01 Y102
G05 D7589
G05 D4120
G05 D0
G01 Y102
G05 D7577
G05 D4132
G05 D0
G01 Y102
G05 D7567
G05 D4142
G05 D0
G01 Y102
G05 D7564
G05 D4145
G05 D0
G01 Y102
G05 D7564
G05 D4145
G05 D0
G01 Y102
G05 D7567
G05 D4142
G05 D0
G01 Y102
G05 D7577
G05 D4132
G05 D0
G01 Y102
G05 D7589
G05 D4120
G05 D0
G01 Y102
G05 D7607
G05 D4102
G05 D0
G01 Y102
G05 D7629
G05 D4741
G05 D0
G01 Y102
G05 D7654
G05 D4691
G05 D0
G01 Y102
G05 D7687
G05 D4626
G05 D0
G01 Y102
G05 D7722
G05 D4554
G05 D0
G01 Y102
G05 D7764
G05 D4471
G05 D0
G01 Y102
G05 D7812
G05 D4377
G05 D0
G01 Y102
G05 D7864
G05 D4271
G05 D0
G01 Y102
G05 D7923
G05 D4153
G05 D0
G01 Y102
G05 D7990
G05 D4019
G05 D0
G01 Y102
G05 D8064
G05 D3872
G05 D0
G01 Y102
G05 D8145
G05 D3708
G05 D0
G01 Y102
G05 D8237
G05 D3524
G05 D0
G01 Y102
G05 D8342
G05 D3316
G05 D0
G01 Y102
G05 D8459
G05 D3081
G05 D0
G01 Y102
G05 D8593
G05 D2813
G05 D0
G01 Y102
G05 D8750
G05 D2500
G05 D0
G01 Y102
G05 D8937
G05 D2124
G05 D0
G01 Y102
G05 D9184
G05 D1632
G05 D0
G01 Y102
G05 D9563
G05 D872
G05 D0
; Disable laser
M20
G01 Z99
; Layer 3 at height 3.48597
; Enable laser
M19
G01 Y-4795
G05 D9735
G05 D530
G05 D0
G01 Y102
G05 D9258
G05 D1483
G05 D0
G01 Y102
G05 D8998
G05 D2003
G05 D0
G01 Y102
G05 D8797
G05 D2404
G05 D0
G01 Y102
G05 D8636
G05 D2728
G05 D0
G01 Y102
G05 D8498
G05 D3004
G05 D0
G01 Y102
G05 D8377
G05 D3244
G05 D0
G01 Y102
G05 D8272
G05 D3455
G05 D0
G01 Y102
G05 D8179
G05 D3641
G05 D0
G01 Y102
G05 D8095
G05 D3809
G05 D0
G01 Y102
G05 D8020
G05 D3960
G05 D0
G01 Y102
G05 D7951
G05 D4096
G05 D0
G01 Y102
G05 D7893
G05 D4214
G05 D0
G01 Y102
G05 D7839
G05 D4322
G05 D0
G01 Y102
G05 D7790
G05 D4418
G05 D0
G01 Y102
G05 D7749
G05 D4501
G05 D0
G01 Y102
G05 D7713
G05 D4574
G05 D0
G01 Y102
G05 D7680
G05 D4639
G05 D0
G01 Y102
G05 D7654
G05 D4690
G05 D0
G01 Y102
G05 D7632
G05 D4077
G05 D0
G01 Y102
G05 D7614
G05 D4095
G05 D0
G01 Y102
G05 D7602
G05 D4107
G05 D0
G01 Y102
G05 D7592
G05 D4117
G05 D0
G01 Y102
G05 D7588
G05 D4121
G05 D0
G01 Y102
G05 D7588
G05 D4121
G05 D0
G01 Y102
G05 D7592
G05 D4117
G05 D0
G01 Y102
G05 D7602
G05 D4107
G05 D0
G01 Y102
G05 D7614
G05 D4095
G05 D0
G01 Y102
G05 D7632
G05 D4077
G05 D0
G01 Y102
G05 D7654
G05 D4690
G05 D0
G01 Y102
G05 D7680
G05 D4639
G05 D0
G01 Y102
G05 D7713
G05 D4574
G05 D0
G01 Y102
G05 D7749
G05 D4501
G05 D0
G01 Y102
G05 D7790
G05 D4418
G05 D0
G01 Y102
G05 D7839
G05 D4321
G05 D0
G01 Y102
G05 D7893
G05 D4214
G05 D0
G01 Y102
G05 D7951
G05 D4096
G05 D0
G01 Y102
G05 D8020
G05 D3959
G05 D0
G01 Y102
G05 D8095
G05 D3809
G05 D0
G01 Y102
G05 D8179
G05 D3642
G05 D0
G01 Y102
G05 D8272
G05 D3455
G05 D0
G01 Y102
G05 D8377
G05 D3244
G05 D0
G01 Y102
G05 D8498
G05 D3003
G05 D0
G01 Y102
G05 D8636
G05 D2727
G05 D0
G01 Y102
G05 D8797
G05 D2404
G05 D0
G01 Y102
G05 D8998
G05 D2004
G05 D0
G01 Y102
G05 D9258
G05 D1483
G05 D0
G01 Y102
G05 D9735
G05 D529
G05 D0
; Disable laser
M20
G01 Z99
; Layer 4 at height 4.48096
; Enable laser
M19
G01 Y-4693
G05 D9348
G05 D1306
G05 D0
G01 Y102
G05 D9060
G05 D1882
G05 D0
G01 Y102
G05 D8850
G05 D2299
G05 D0
G01 Y102
G05 D8680
G05 D2638
G05 D0
G01 Y102
G05 D8538
G05 D2924
G05 D0
G01 Y102
G05 D8415
G05 D3169
G05 D0
G01 Y102
G05 D8307
G05 D3384
G05 D0
G01 Y102
G05 D8212
G05 D3575
G05 D0
G01 Y102
G05 D8127
G05 D3746
G05 D0
G01 Y102
G05 D8050
G05 D3899
G05 D0
G01 Y102
G05 D7981
G05 D4036
G05 D0
G01 Y102
G05 D7921
G05 D4157
G05 D0
G01 Y102
G05 D7867
G05 D4266
G05 D0
G01 Y102
G05 D7817
G05 D4364
G05 D0
G01 Y102
G05 D7776
G05 D4447
G05 D0
G01 Y102
G05 D7739
G05 D4522
G05 D0
G01 Y102
G05 D7706
G05 D4587
G05 D0
G01 Y102
G05 D7680
G05 D4639
G05 D0
G01 Y102
G05 D7657
G05 D4052
G05 D0
G01 Y102
G05 D7639
G05 D4070
G05 D0
G01 Y102
G05 D7627
G05 D4082
G05 D0
G01 Y102
G05 D7617
G05 D4092
G05 D0
G01 Y102
G05 D7613
G05 D4096
G05 D0
G01 Y102
G05 D7613
G05 D4096
G05 D0
G01 Y102
G05 D7617
G05 D4092
G05 D0
G01 Y102
G05 D7627
G05 D4082
G05 D0
G01 Y102
G05 D7639
G05 D4070
G05 D0
G01 Y102
G05 D7657
G05 D4052
G05 D0
G01 Y102
G05 D7680
G05 D4639
G05 D0
G01 Y102
G05 D7706
G05 D4587
G05 D0
G01 Y102
G05 D7739
G05 D4521
G05 D0
G01 Y102
G05 D7776
G05 D4448
G05 D0
G01 Y102
G05 D7817
G05 D4364
G05 D0
G01 Y102
G05 D7867
G05 D4265
G05 D0
G01 Y102
G05 D7921
G05 D4157
G05 D0
G01 Y102
G05 D7981
G05 D4036
G05 D0
G01 Y102
G05 D8050
G05 D3899
G05 D0
G01 Y102
G05 D8127
G05 D3746
G05 D0
G01 Y102
G05 D8212
G05 D3575
G05 D0
G01 Y102
G05 D8307
G05 D3384
G05 D0
G01 Y102
G05 D8415
G05 D3169
G05 D0
G01 Y102
G05 D8538
G05 D2924
G05 D0
G01 Y102
G05 D8680
G05 D2639
G05 D0
G01 Y102
G05 D8850
G05 D2300
G05 D0
G01 Y102
G05 D9060
G05 D1880
G05 D0
G01 Y102
G05 D9348
G05 D1305
G05 D0
; Disable laser
M20
G01 Z99
; Layer 5 at height 5.47595
; Enable laser
M19
G01 Y-4591
G05 D9442
G05 D1116
G05 D0
G01 Y102
G05 D9122
G05 D1755
G05 D0
G01 Y102
G05 D8903
G05 D2194
G05 D0
G01 Y102
G05 D8727
G05 D2545
G05 D0
G01 Y102
G05 D8580
G05 D2839
G05 D0
G01 Y102
G05 D8454
G05 D3092
G05 D0
G01 Y102
G05 D8343
G05 D3313
G05 D0
G01 Y102
G05 D8246
G05 D3508
G05 D0
G01 Y102
G05 D8158
G05 D3683
G05 D0
G01 Y102
G05 D8080
G05 D3839
G05 D0
G01 Y102
G05 D8011
G05 D3976
G05 D0
G01 Y102
G05 D7950
G05 D4099
G05 D0
G01 Y102
G05 D7894
G05 D4210
G05 D0
G01 Y102
G05 D7845
G05 D4309
G05 D0
G01 Y102
G05 D7803
G05 D4393
G05 D0
G01 Y102
G05 D7765
G05 D4469
G05 D0
G01 Y102
G05 D7732
G05 D4535
G05 D0
G01 Y102
G05 D7705
G05 D4588
G05 D0
G01 Y102
G05 D7682
G05 D4027
G05 D0
G01 Y102
G05 D7664
G05 D4045
G05 D0
G01 Y102
G05 D7652
G05 D4057
G05 D0
G01 Y102
G05 D7642
G05 D4067
G05 D0
G01 Y102
G05 D7638
G05 D4071
G05 D0
G01 Y102
G05 D7638
G05 D4071
G05 D0
G01 Y102
G05 D7642
G05 D4067
G05 D0
G01 Y102
G05 D7652
G05 D4057
G05 D0
G01 Y102
G05 D7664
G05 D4045
G05 D0
G01 Y102
G05 D7682
G05 D4027
G05 D0
G01 Y102
G05 D7705
G05 D4588
G05 D0
G01 Y102
G05 D7732
G05 D4535
G05 D0
G01 Y102
G05 D7765
G05 D4469
G05 D0
G01 Y102
G05 D7803
G05 D4394
G05 D0
G01 Y102
G05 D7845
G05 D4309
G05 D0
G01 Y102
G05 D7894
G05 D4210
G05 D0
G01 Y102
G05 D7950
G05 D4100
G05 D0
G01 Y102
G05 D8011
G05 D3977
G05 D0
G01 Y102
G05 D8080
G05 D3839
G05 D0
G01 Y102
G05 D8158
G05 D3682
G05 D0
G01 Y102
G05 D8246
G05 D3508
G05 D0
G01 Y102
G05 D8343
G05 D3313
G05 D0
G01 Y102
G05 D8454
G05 D3093
G05 D0
G01 Y102
G05 D8580
G05 D2840
G05 D0
G01 Y102
G05 D8727
G05 D2546
G05 D0
G01 Y102
G05 D8903
G05 D2193
G05 D0
G01 Y102
G05 D9122
G05 D1755
G05 D0
G01 Y102
G05 D9442
G05 D1116
G05 D0
; Disable laser
M20
G01 Z99
; Layer 6 at height 6.47094
; Enable laser
M19
G01 Y-4591
G05 D9561
G05 D878
G05 D0
G01 Y102
G05 D9195
G05 D1610
G05 D0
G01 Y102
G05 D8956
G05 D2087
G05 D0
G01 Y102
G05 D8774
G05 D2452
G05 D0
G01 Y102
G05 D8622
G05 D2755
G05 D0
G01 Y102
G05 D8492
G05 D3015
G05 D0
G01 Y102
G05 D8379
G05 D3241
G05 D0
G01 Y102
G05 D8279
G05 D3442
G05 D0
G01 Y102
G05 D8190
G05 D3619
G05 D0
G01 Y102
G05 D8110
G05 D3778
G05 D0
G01 Y102
G05 D8041
G05 D3916
G05 D0
G01 Y102
G05 D7979
G05 D4042
G05 D0
G01 Y102
G05 D7922
G05 D4155
G05 D0
G01 Y102
G05 D7872
G05 D4254
G05 D0
G01 Y102
G05 D7830
G05 D4340
G05 D0
G01 Y102
G05 D7791
G05 D4417
G05 D0
G01 Y102
G05 D7758
G05 D4483
G05 D0
G01 Y102
G05 D7731
G05 D4537
G05 D0
G01 Y102
G05 D7708
G05 D4001
G05 D0
G01 Y102
G05 D7690
G05 D4019
G05 D0
G01 Y102
G05 D7677
G05 D4032
G05 D0
G01 Y102
G05 D7667
G05 D4042
G05 D0
G01 Y102
G05 D7663
G05 D4046
G05 D0
G01 Y102
G05 D7663
G05 D4046
G05 D0
G01 Y102
G05 D7667
G05 D4042
G05 D0
G01 Y102
G05 D7677
G05 D4032
G05 D0
G01 Y102
G05 D7690
G05 D4019
G05 D0
G01 Y102
G05 D7708
G05 D4001
G05 D0
G01 Y102
G05 D7731
G05 D4537
G05 D0
G01 Y102
G05 D7758
G05 D4483
G05 D0
G01 Y102
G05 D7791
G05 D4416
G05 D0
G01 Y102
G05 D7830
G05 D4340
G05 D0
G01 Y102
G05 D7872
G05 D4254
G05 D0
G01 Y102
G05 D7922
G05 D4155
G05 D0
G01 Y102
G05 D7979
G05 D4042
G05 D0
G01 Y102
G05 D8041
G05 D3917
G05 D0
G01 Y102
G05 D8110
G05 D3778
G05 D0
G01 Y102
G05 D8190
G05 D3619
G05 D0
G01 Y102
G05 D8279
G05 D3441
G05 D0
G01 Y102
G05 D8379
G05 D3241
G05 D0
G01 Y102
G05 D8492
G05 D3015
G05 D0
G01 Y102
G05 D8622
G05 D2755
G05 D0
G01 Y102
G05 D8774
G05 D2451
G05 D0
G01 Y102
G05 D8956
G05 D2087
G05 D0
G01 Y102
G05 D9195
G05 D1611
G05 D0
G01 Y102
G05 D9561
G05 D876
G05 D0
; Disable laser
M20
G01 Z99
; Layer 7 at height 7.46593
; Enable laser
M19
G01 Y-4591
G05 D9724
G05 D556
G05 D0
G01 Y102
G05 D9267
G05 D1465
G05 D0
G01 Y102
G05 D9014
G05 D1972
G05 D0
G01 Y102
G05 D8821
G05 D2357
G05 D0
G01 Y102
G05 D8664
G05 D2671
G05 D0
G01 Y102
G05 D8531
G05 D2938
G05 D0
G01 Y102
G05 D8415
G05 D3170
G05 D0
G01 Y102
G05 D8313
G05 D3374
G05 D0
G01 Y102
G05 D8222
G05 D3556
G05 D0
G01 Y102
G05 D8142
G05 D3715
G05 D0
G01 Y102
G05 D8071
G05 D3856
G05 D0
G01 Y102
G05 D8007
G05 D3985
G05 D0
G01 Y102
G05 D7950
G05 D4099
G05 D0
G01 Y102
G05 D7900
G05 D4199
G05 D0
G01 Y102
G05 D7856
G05 D4286
G05 D0
G01 Y102
G05 D7817
G05 D4365
G05 D0
G01 Y102
G05 D7784
G05 D4431
G05 D0
G01 Y102
G05 D7757
G05 D4486
G05 D0
G01 Y102
G05 D7733
G05 D3976
G05 D0
G01 Y102
G05 D7715
G05 D3994
G05 D0
G01 Y102
G05 D7702
G05 D4007
G05 D0
G01 Y102
G05 D7691
G05 D4018
G05 D0
G01 Y102
G05 D7688
G05 D4021
G05 D0
G01 Y102
G05 D7688
G05 D4021
G05 D0
G01 Y102
G05 D7691
G05 D4018
G05 D0
G01 Y102
G05 D7702
G05 D4007
G05 D0
G01 Y102
G05 D7715
G05 D3994
G05 D0
G01 Y102
G05 D7733
G05 D3976
G05 D0
G01 Y102
G05 D7757
G05 D4486
G05 D0
G01 Y102
G05 D7784
G05 D4431
G05 D0
G01 Y102
G05 D7817
G05 D4364
G05 D0
G01 Y102
G05 D7856
G05 D4286
G05 D0
G01 Y102
G05 D7900
G05 D4199
G05 D0
G01 Y102
G05 D7950
G05 D4099
G05 D0
G01 Y102
G05 D8007
G05 D3984
G05 D0
G01 Y102
G05 D8071
G05 D3857
G05 D0
G01 Y102
G05 D8142
G05 D3715
G05 D0
G01 Y102
G05 D8222
G05 D3556
G05 D0
G01 Y102
G05 D8313
G05 D3374
G05 D0
G01 Y102
G05 D8415
G05 D3169
G05 D0
G01 Y102
G05 D8531
G05 D2937
G05 D0
G01 Y102
G05 D8664
G05 D2670
G05 D0
G01 Y102
G05 D8821
G05 D2357
G05 D0
G01 Y102
G05 D9014
G05 D1972
G05 D0
G01 Y102
G05 D9267
G05 D1465
G05 D0
G01 Y102
G05 D9724
G05 D553
G05 D0
; Disable laser
M20
G01 Z99
; Layer 8 at height 8.46092
; Enable laser
M19
G01 Y-4489
G05 D9353
G05 D1293
G05 D0
G01 Y102
G05 D9075
G05 D1850
G05 D0
G01 Y102
G05 D8870
G05 D2259
G05 D0
G01 Y102
G05 D8707
G05 D2586
G05 D0
G01 Y102
G05 D8570
G05 D2860
G05 D0
G01 Y102
G05 D8451
G05 D3098
G05 D0
G01 Y102
G05 D8346
G05 D3307
G05 D0
G01 Y102
G05 D8254
G05 D3490
G05 D0
G01 Y102
G05 D8173
G05 D3652
G05 D0
G01 Y102
G05 D8101
G05 D3797
G05 D0
G01 Y102
G05 D8036
G05 D3927
G05 D0
G01 Y102
G05 D7977
G05 D4044
G05 D0
G01 Y102
G05 D7928
G05 D4143
G05 D0
G01 Y102
G05 D7883
G05 D4233
G05 D0
G01 Y102
G05 D7843
G05 D4312
G05 D0
G01 Y102
G05 D7810
G05 D4379
G05 D0
G01 Y102
G05 D7782
G05 D4435
G05 D0
G01 Y102
G05 D7758
G05 D3951
G05 D0
G01 Y102
G05 D7740
G05 D3969
G05 D0
G01 Y102
G05 D7727
G05 D3982
G05 D0
G01 Y102
G05 D7716
G05 D3993
G05 D0
G01 Y102
G05 D7713
G05 D3996
G05 D0
G01 Y102
G05 D7713
G05 D3996
G05 D0
G01 Y102
G05 D7716
G05 D3993
G05 D0
G01 Y102
G05 D7727
G05 D3982
G05 D0
G01 Y102
G05 D7740
G05 D3969
G05 D0
G01 Y102
G05 D7758
G05 D3951
G05 D0
G01 Y102
G05 D7782
G05 D4435
G05 D0
G01 Y102
G05 D7810
G05 D4379
G05 D0
G01 Y102
G05 D7843
G05 D4312
G05 D0
G01 Y102
G05 D7883
G05 D4232
G05 D0
G01 Y102
G05 D7928
G05 D4144
G05 D0
G01 Y102
G05 D7977
G05 D4044
G05 D0
G01 Y102
G05 D8036
G05 D3927
G05 D0
G01 Y102
G05 D8101
G05 D3797
G05 D0
G01 Y102
G05 D8173
G05 D3653
G05 D0
G01 Y102
G05 D8254
G05 D3490
G05 D0
G01 Y102
G05 D8346
G05 D3307
G05 D0
G01 Y102
G05 D8451
G05 D3098
G05 D0
G01 Y102
G05 D8570
G05 D2860
G05 D0
G01 Y102
G05 D8707
G05 D2586
G05 D0
G01 Y102
G05 D8870
G05 D2259
G05 D0
G01 Y102
G05 D9075
G05 D1850
G05 D0
G01 Y102
G05 D9353
G05 D1295
G05 D0
; Disable laser
M20
G01 Z99
; Layer 9 at height 9.45591
; Enable laser
M19
G01 Y-4387
G05 D9443
G05 D1113
G05 D0
G01 Y102
G05 D9136
G05 D1727
G05 D0
G01 Y102
G05 D8923
G05 D2152
G05 D0
