; Generated by GRSlicer ('0.1',)
G01 Z100
; Layer 0 at height 1.0
; Enable laser
M19
G01 Y7600
G05 D9395
G05 D1208
G05 D0
G01 Y100
G05 D9087
G05 D1825
G05 D0
G01 Y100
G05 D8868
G05 D2264
G05 D0
G01 Y100
G05 D8693
G05 D2616
G05 D0
G01 Y100
G05 D8544
G05 D2913
G05 D0
G01 Y100
G05 D8416
G05 D3169
G05 D0
G01 Y100
G05 D8303
G05 D3395
G05 D0
G01 Y100
G05 D8202
G05 D3596
G05 D0
G01 Y100
G05 D8112
G05 D3775
G05 D0
G01 Y100
G05 D8033
G05 D3935
G05 D0
G01 Y100
G05 D7960
G05 D4079
G05 D0
G01 Y100
G05 D7894
G05 D4211
G05 D0
G01 Y100
G05 D7836
G05 D4327
G05 D0
G01 Y100
G05 D7784
G05 D4432
G05 D0
G01 Y100
G05 D7736
G05 D4527
G05 D0
G01 Y100
G05 D7695
G05 D4609
G05 D0
G01 Y100
G05 D7659
G05 D4682
G05 D0
G01 Y100
G05 D7626
G05 D4746
G05 D0
G01 Y100
G05 D7600
G05 D4799
G05 D0
G01 Y100
G05 D7576
G05 D4133
G05 D0
G01 Y100
G05 D7558
G05 D4151
G05 D0
G01 Y100
G05 D7544
G05 D4165
G05 D0
G01 Y100
G05 D7533
G05 D4176
G05 D0
G01 Y100
G05 D7528
G05 D4181
G05 D0
G01 Y100
G05 D7525
G05 D4185
G05 D0
G01 Y100
G05 D7528
G05 D4181
G05 D0
G01 Y100
G05 D7533
G05 D4176
G05 D0
G01 Y100
G05 D7544
G05 D4165
G05 D0
G01 Y100
G05 D7558
G05 D4151
G05 D0
G01 Y100
G05 D7576
G05 D4847
G05 D0
G01 Y100
G05 D7600
G05 D4800
G05 D0
G01 Y100
G05 D7626
G05 D4747
G05 D0
G01 Y100
G05 D7659
G05 D4682
G05 D0
G01 Y100
G05 D7695
G05 D4609
G05 D0
G01 Y100
G05 D7736
G05 D4527
G05 D0
G01 Y100
G05 D7784
G05 D4432
G05 D0
G01 Y100
G05 D7836
G05 D4327
G05 D0
G01 Y100
G05 D7894
G05 D4211
G05 D0
G01 Y100
G05 D7960
G05 D4079
G05 D0
G01 Y100
G05 D8033
G05 D3935
G05 D0
G01 Y100
G05 D8112
G05 D3775
G05 D0
G01 Y100
G05 D8202
G05 D3595
G05 D0
G01 Y100
G05 D8303
G05 D3394
G05 D0
G01 Y100
G05 D8416
G05 D3169
G05 D0
G01 Y100
G05 D8544
G05 D2913
G05 D0
G01 Y100
G05 D8693
G05 D2616
G05 D0
G01 Y100
G05 D8868
G05 D2263
G05 D0
G01 Y100
G05 D9087
G05 D1826
G05 D0
G01 Y100
G05 D9395
G05 D1207
G05 D0
; Disable laser
M20
G01 Z100
; Layer 1 at height 2.0
; Enable laser
M19
G01 Y-4800
G05 D9514
G05 D976
G05 D0
G01 Y100
G05 D9160
G05 D1682
G05 D0
G01 Y100
G05 D8922
G05 D2155
G05 D0
G01 Y100
G05 D8740
G05 D2521
G05 D0
G01 Y100
G05 D8587
G05 D2827
G05 D0
G01 Y100
G05 D8455
G05 D3091
G05 D0
G01 Y100
G05 D8339
G05 D3322
G05 D0
G01 Y100
G05 D8235
G05 D3528
G05 D0
G01 Y100
G05 D8145
G05 D3708
G05 D0
G01 Y100
G05 D8064
G05 D3871
G05 D0
G01 Y100
G05 D7990
G05 D4019
G05 D0
G01 Y100
G05 D7923
G05 D4153
G05 D0
G01 Y100
G05 D7865
G05 D4269
G05 D0
G01 Y100
G05 D7812
G05 D4376
G05 D0
G01 Y100
G05 D7763
G05 D4473
G05 D0
G01 Y100
G05 D7722
G05 D4555
G05 D0
G01 Y100
G05 D7685
G05 D4629
G05 D0
G01 Y100
G05 D7652
G05 D4694
G05 D0
G01 Y100
G05 D7626
G05 D4747
G05 D0
G01 Y100
G05 D7601
G05 D4108
G05 D0
G01 Y100
G05 D7584
G05 D4125
G05 D0
G01 Y100
G05 D7569
G05 D4140
G05 D0
G01 Y100
G05 D7559
G05 D4150
G05 D0
G01 Y100
G05 D7553
G05 D4156
G05 D0
G01 Y100
G05 D7550
G05 D4159
G05 D0
G01 Y100
G05 D7553
G05 D4156
G05 D0
G01 Y100
G05 D7559
G05 D4150
G05 D0
G01 Y100
G05 D7569
G05 D4140
G05 D0
G01 Y100
G05 D7584
G05 D4125
G05 D0
G01 Y100
G05 D7601
G05 D4796
G05 D0
G01 Y100
G05 D7626
G05 D4747
G05 D0
G01 Y100
G05 D7652
G05 D4694
G05 D0
G01 Y100
G05 D7685
G05 D4629
G05 D0
G01 Y100
G05 D7722
G05 D4555
G05 D0
G01 Y100
G05 D7763
G05 D4473
G05 D0
G01 Y100
G05 D7812
G05 D4376
G05 D0
G01 Y100
G05 D7865
G05 D4270
G05 D0
G01 Y100
G05 D7923
G05 D4153
G05 D0
G01 Y100
G05 D7990
G05 D4018
G05 D0
G01 Y100
G05 D8064
G05 D3872
G05 D0
G01 Y100
G05 D8145
G05 D3709
G05 D0
G01 Y100
G05 D8235
G05 D3528
G05 D0
G01 Y100
G05 D8339
G05 D3322
G05 D0
G01 Y100
G05 D8455
G05 D3090
G05 D0
G01 Y100
G05 D8587
G05 D2826
G05 D0
G01 Y100
G05 D8740
G05 D2520
G05 D0
G01 Y100
G05 D8922
G05 D2155
G05 D0
G01 Y100
G05 D9160
G05 D1683
G05 D0
G01 Y100
G05 D9514
G05 D975
G05 D0
; Disable laser
M20
G01 Z100
; Layer 2 at height 3.0
; Enable laser
M19
G01 Y-4800
G05 D9663
G05 D680
G05 D0
G01 Y100
G05 D9233
G05 D1534
G05 D0
G01 Y100
G05 D8982
G05 D2035
G05 D0
G01 Y100
G05 D8787
G05 D2425
G05 D0
G01 Y100
G05 D8629
G05 D2741
G05 D0
G01 Y100
G05 D8493
G05 D3012
G05 D0
G01 Y100
G05 D8375
G05 D3249
G05 D0
G01 Y100
G05 D8271
G05 D3456
G05 D0
G01 Y100
G05 D8179
G05 D3641
G05 D0
G01 Y100
G05 D8096
G05 D3808
G05 D0
G01 Y100
G05 D8020
G05 D3958
G05 D0
G01 Y100
G05 D7953
G05 D4092
G05 D0
G01 Y100
G05 D7894
G05 D4212
G05 D0
G01 Y100
G05 D7840
G05 D4320
G05 D0
G01 Y100
G05 D7791
G05 D4417
G05 D0
G01 Y100
G05 D7749
G05 D4501
G05 D0
G01 Y100
G05 D7711
G05 D4577
G05 D0
G01 Y100
G05 D7679
G05 D4641
G05 D0
G01 Y100
G05 D7651
G05 D4696
G05 D0
G01 Y100
G05 D7627
G05 D4082
G05 D0
G01 Y100
G05 D7609
G05 D4100
G05 D0
G01 Y100
G05 D7594
G05 D4115
G05 D0
G01 Y100
G05 D7584
G05 D4125
G05 D0
G01 Y100
G05 D7578
G05 D4131
G05 D0
G01 Y100
G05 D7575
G05 D4134
G05 D0
G01 Y100
G05 D7578
G05 D4131
G05 D0
G01 Y100
G05 D7584
G05 D4125
G05 D0
G01 Y100
G05 D7594
G05 D4115
G05 D0
G01 Y100
G05 D7609
G05 D4100
G05 D0
G01 Y100
G05 D7627
G05 D4745
G05 D0
G01 Y100
G05 D7651
G05 D4696
G05 D0
G01 Y100
G05 D7679
G05 D4642
G05 D0
G01 Y100
G05 D7711
G05 D4576
G05 D0
G01 Y100
G05 D7749
G05 D4501
G05 D0
G01 Y100
G05 D7791
G05 D4417
G05 D0
G01 Y100
G05 D7840
G05 D4320
G05 D0
G01 Y100
G05 D7894
G05 D4212
G05 D0
G01 Y100
G05 D7953
G05 D4093
G05 D0
G01 Y100
G05 D8020
G05 D3958
G05 D0
G01 Y100
G05 D8096
G05 D3808
G05 D0
G01 Y100
G05 D8179
G05 D3642
G05 D0
G01 Y100
G05 D8271
G05 D3457
G05 D0
G01 Y100
G05 D8375
G05 D3249
G05 D0
G01 Y100
G05 D8493
G05 D3012
G05 D0
G01 Y100
G05 D8629
G05 D2740
G05 D0
G01 Y100
G05 D8787
G05 D2425
G05 D0
G01 Y100
G05 D8982
G05 D2036
G05 D0
G01 Y100
G05 D9233
G05 D1533
G05 D0
G01 Y100
G05 D9663
G05 D682
G05 D0
; Disable laser
M20
G01 Z100
; Layer 3 at height 4.0
; Enable laser
M19
G01 Y-4700
G05 D9319
G05 D1363
G05 D0
G01 Y100
G05 D9044
G05 D1914
G05 D0
G01 Y100
G05 D8840
G05 D2319
G05 D0
G01 Y100
G05 D8674
G05 D2651
G05 D0
G01 Y100
G05 D8534
G05 D2931
G05 D0
G01 Y100
G05 D8413
G05 D3172
G05 D0
G01 Y100
G05 D8307
G05 D3385
G05 D0
G01 Y100
G05 D8213
G05 D3574
G05 D0
G01 Y100
G05 D8128
G05 D3744
G05 D0
G01 Y100
G05 D8051
G05 D3897
G05 D0
G01 Y100
G05 D7983
G05 D4032
G05 D0
G01 Y100
G05 D7923
G05 D4154
G05 D0
G01 Y100
G05 D7867
G05 D4264
G05 D0
G01 Y100
G05 D7819
G05 D4361
G05 D0
G01 Y100
G05 D7776
G05 D4447
G05 D0
G01 Y100
G05 D7737
G05 D4524
G05 D0
G01 Y100
G05 D7705
G05 D4589
G05 D0
G01 Y100
G05 D7677
G05 D4645
G05 D0
G01 Y100
G05 D7652
G05 D4057
G05 D0
G01 Y100
G05 D7634
G05 D4075
G05 D0
G01 Y100
G05 D7619
G05 D4090
G05 D0
G01 Y100
G05 D7609
G05 D4100
G05 D0
G01 Y100
G05 D7603
G05 D4106
G05 D0
G01 Y100
G05 D7600
G05 D4109
G05 D0
G01 Y100
G05 D7603
G05 D4106
G05 D0
G01 Y100
G05 D7609
G05 D4100
G05 D0
G01 Y100
G05 D7619
G05 D4090
G05 D0
G01 Y100
G05 D7634
G05 D4075
G05 D0
G01 Y100
G05 D7652
G05 D4694
G05 D0
G01 Y100
G05 D7677
G05 D4645
G05 D0
G01 Y100
G05 D7705
G05 D4589
G05 D0
G01 Y100
G05 D7737
G05 D4524
G05 D0
G01 Y100
G05 D7776
G05 D4447
G05 D0
G01 Y100
G05 D7819
G05 D4362
G05 D0
G01 Y100
G05 D7867
G05 D4264
G05 D0
G01 Y100
G05 D7923
G05 D4154
G05 D0
G01 Y100
G05 D7983
G05 D4033
G05 D0
G01 Y100
G05 D8051
G05 D3897
G05 D0
G01 Y100
G05 D8128
G05 D3744
G05 D0
G01 Y100
G05 D8213
G05 D3575
G05 D0
G01 Y100
G05 D8307
G05 D3386
G05 D0
G01 Y100
G05 D8413
G05 D3173
G05 D0
G01 Y100
G05 D8534
G05 D2931
G05 D0
G01 Y100
G05 D8674
G05 D2651
G05 D0
G01 Y100
G05 D8840
G05 D2320
G05 D0
G01 Y100
G05 D9044
G05 D1913
G05 D0
G01 Y100
G05 D9319
G05 D1365
G05 D0
; Disable laser
M20
G01 Z100
; Layer 4 at height 5.0
; Enable laser
M19
G01 Y-4600
G05 D9409
G05 D1181
G05 D0
G01 Y100
G05 D9105
G05 D1788
G05 D0
G01 Y100
G05 D8893
G05 D2214
G05 D0
G01 Y100
G05 D8721
G05 D2557
G05 D0
G01 Y100
G05 D8577
G05 D2846
G05 D0
G01 Y100
G05 D8452
G05 D3095
G05 D0
G01 Y100
G05 D8343
G05 D3313
G05 D0
G01 Y100
G05 D8246
G05 D3508
G05 D0
G01 Y100
G05 D8159
G05 D3681
G05 D0
G01 Y100
G05 D8081
G05 D3836
G05 D0
G01 Y100
G05 D8013
G05 D3972
G05 D0
G01 Y100
G05 D7952
G05 D4097
G05 D0
G01 Y100
G05 D7895
G05 D4208
G05 D0
G01 Y100
G05 D7846
G05 D4306
G05 D0
G01 Y100
G05 D7803
G05 D4393
G05 D0
G01 Y100
G05 D7764
G05 D4471
G05 D0
G01 Y100
G05 D7731
G05 D4536
G05 D0
G01 Y100
G05 D7703
G05 D4593
G05 D0
G01 Y100
G05 D7678
G05 D4031
G05 D0
G01 Y100
G05 D7660
G05 D4049
G05 D0
G01 Y100
G05 D7644
G05 D4065
G05 D0
G01 Y100
G05 D7634
G05 D4075
G05 D0
G01 Y100
G05 D7628
G05 D4081
G05 D0
G01 Y100
G05 D7625
G05 D4085
G05 D0
G01 Y100
G05 D7628
G05 D4081
G05 D0
G01 Y100
G05 D7634
G05 D4075
G05 D0
G01 Y100
G05 D7644
G05 D4065
G05 D0
G01 Y100
G05 D7660
G05 D4049
G05 D0
G01 Y100
G05 D7678
G05 D4643
G05 D0
G01 Y100
G05 D7703
G05 D4593
G05 D0
G01 Y100
G05 D7731
G05 D4537
G05 D0
G01 Y100
G05 D7764
G05 D4471
G05 D0
G01 Y100
G05 D7803
G05 D4393
G05 D0
G01 Y100
G05 D7846
G05 D4306
G05 D0
G01 Y100
G05 D7895
G05 D4208
G05 D0
G01 Y100
G05 D7952
G05 D4096
G05 D0
G01 Y100
G05 D8013
G05 D3973
G05 D0
G01 Y100
G05 D8081
G05 D3836
G05 D0
G01 Y100
G05 D8159
G05 D3680
G05 D0
G01 Y100
G05 D8246
G05 D3507
G05 D0
G01 Y100
G05 D8343
G05 D3314
G05 D0
G01 Y100
G05 D8452
G05 D3096
G05 D0
G01 Y100
G05 D8577
G05 D2847
G05 D0
G01 Y100
G05 D8721
G05 D2558
G05 D0
G01 Y100
G05 D8893
G05 D2214
G05 D0
G01 Y100
G05 D9105
G05 D1788
G05 D0
G01 Y100
G05 D9409
G05 D1181
G05 D0
; Disable laser
M20
G01 Z100
; Layer 5 at height 6.0
; Enable laser
M19
G01 Y-4600
G05 D9524
G05 D954
G05 D0
G01 Y100
G05 D9177
G05 D1645
G05 D0
G01 Y100
G05 D8946
G05 D2107
G05 D0
G01 Y100
G05 D8768
G05 D2464
G05 D0
G01 Y100
G05 D8619
G05 D2762
G05 D0
G01 Y100
G05 D8491
G05 D3018
G05 D0
G01 Y100
G05 D8379
G05 D3242
G05 D0
G01 Y100
G05 D8280
G05 D3440
G05 D0
G01 Y100
G05 D8191
G05 D3617
G05 D0
G01 Y100
G05 D8113
G05 D3773
G05 D0
G01 Y100
G05 D8043
G05 D3912
G05 D0
G01 Y100
G05 D7980
G05 D4039
G05 D0
G01 Y100
G05 D7923
G05 D4153
G05 D0
G01 Y100
G05 D7874
G05 D4250
G05 D0
G01 Y100
G05 D7830
G05 D4339
G05 D0
G01 Y100
G05 D7790
G05 D4419
G05 D0
G01 Y100
G05 D7758
G05 D4484
G05 D0
G01 Y100
G05 D7729
G05 D4542
G05 D0
G01 Y100
G05 D7704
G05 D4005
G05 D0
G01 Y100
G05 D7685
G05 D4024
G05 D0
G01 Y100
G05 D7670
G05 D4039
G05 D0
G01 Y100
G05 D7659
G05 D4050
G05 D0
G01 Y100
G05 D7653
G05 D4056
G05 D0
G01 Y100
G05 D7650
G05 D4059
G05 D0
G01 Y100
G05 D7653
G05 D4056
G05 D0
G01 Y100
G05 D7659
G05 D4050
G05 D0
G01 Y100
G05 D7670
G05 D4039
G05 D0
G01 Y100
G05 D7685
G05 D4024
G05 D0
G01 Y100
G05 D7704
G05 D4591
G05 D0
G01 Y100
G05 D7729
G05 D4542
G05 D0
G01 Y100
G05 D7758
G05 D4484
G05 D0
G01 Y100
G05 D7790
G05 D4419
G05 D0
G01 Y100
G05 D7830
G05 D4339
G05 D0
G01 Y100
G05 D7874
G05 D4251
G05 D0
G01 Y100
G05 D7923
G05 D4153
G05 D0
G01 Y100
G05 D7980
G05 D4038
G05 D0
G01 Y100
G05 D8043
G05 D3913
G05 D0
G01 Y100
G05 D8113
G05 D3773
G05 D0
G01 Y100
G05 D8191
G05 D3617
G05 D0
G01 Y100
G05 D8280
G05 D3439
G05 D0
G01 Y100
G05 D8379
G05 D3241
G05 D0
G01 Y100
G05 D8491
G05 D3018
G05 D0
G01 Y100
G05 D8619
G05 D2762
G05 D0
G01 Y100
G05 D8768
G05 D2463
G05 D0
G01 Y100
G05 D8946
G05 D2106
G05 D0
G01 Y100
G05 D9177
G05 D1647
G05 D0
G01 Y100
G05 D9524
G05 D953
G05 D0
; Disable laser
M20
G01 Z100
; Layer 6 at height 7.0
; Enable laser
M19
G01 Y-4600
G05 D9669
G05 D663
G05 D0
G01 Y100
G05 D9250
G05 D1500
G05 D0
G01 Y100
G05 D9003
G05 D1993
G05 D0
G01 Y100
G05 D8815
G05 D2369
G05 D0
G01 Y100
G05 D8661
G05 D2677
G05 D0
G01 Y100
G05 D8530
G05 D2940
G05 D0
G01 Y100
G05 D8415
G05 D3170
G05 D0
G01 Y100
G05 D8313
G05 D3372
G05 D0
G01 Y100
G05 D8223
G05 D3552
G05 D0
G01 Y100
G05 D8145
G05 D3709
G05 D0
G01 Y100
G05 D8074
G05 D3852
G05 D0
G01 Y100
G05 D8009
G05 D3981
G05 D0
G01 Y100
G05 D7952
G05 D4096
G05 D0
G01 Y100
G05 D7902
G05 D4195
G05 D0
G01 Y100
G05 D7857
G05 D4285
G05 D0
G01 Y100
G05 D7817
G05 D4365
G05 D0
G01 Y100
G05 D7784
G05 D4431
G05 D0
G01 Y100
G05 D7754
G05 D4490
G05 D0
G01 Y100
G05 D7729
G05 D3980
G05 D0
G01 Y100
G05 D7711
G05 D3998
G05 D0
G01 Y100
G05 D7695
G05 D4014
G05 D0
G01 Y100
G05 D7684
G05 D4025
G05 D0
G01 Y100
G05 D7678
G05 D4031
G05 D0
G01 Y200
G05 D7678
G05 D4031
G05 D0
G01 Y100
G05 D7684
G05 D4025
G05 D0
G01 Y100
G05 D7695
G05 D4014
G05 D0
G01 Y100
G05 D7711
G05 D3998
G05 D0
G01 Y100
G05 D7729
G05 D4540
G05 D0
G01 Y100
G05 D7754
G05 D4490
G05 D0
G01 Y100
G05 D7784
G05 D4432
G05 D0
G01 Y100
G05 D7817
G05 D4365
G05 D0
G01 Y100
G05 D7857
G05 D4284
G05 D0
G01 Y100
G05 D7902
G05 D4196
G05 D0
G01 Y100
G05 D7952
G05 D4096
G05 D0
G01 Y100
G05 D8009
G05 D3980
G05 D0
G01 Y100
G05 D8074
G05 D3852
G05 D0
G01 Y100
G05 D8145
G05 D3710
G05 D0
G01 Y100
G05 D8223
G05 D3552
G05 D0
G01 Y100
G05 D8313
G05 D3372
G05 D0
G01 Y100
G05 D8415
G05 D3169
G05 D0
G01 Y100
G05 D8530
G05 D2939
G05 D0
G01 Y100
G05 D8661
G05 D2676
G05 D0
G01 Y100
G05 D8815
G05 D2368
G05 D0
G01 Y100
G05 D9003
G05 D1993
G05 D0
G01 Y100
G05 D9250
G05 D1499
G05 D0
G01 Y100
G05 D9669
G05 D666
G05 D0
; Disable laser
M20
G01 Z100
; Layer 7 at height 8.0
; Enable laser
M19
G01 Y-4500
G05 D9333
G05 D1334
G05 D0
G01 Y100
G05 D9065
G05 D1870
G05 D0
G01 Y100
G05 D8865
G05 D2269
G05 D0
G01 Y100
G05 D8704
G05 D2591
G05 D0
G01 Y100
G05 D8569
G05 D2862
G05 D0
G01 Y100
G05 D8451
G05 D3097
G05 D0
G01 Y100
G05 D8347
G05 D3304
G05 D0
G01 Y100
G05 D8257
G05 D3485
G05 D0
G01 Y100
G05 D8176
G05 D3646
G05 D0
G01 Y100
G05 D8104
G05 D3792
G05 D0
G01 Y100
G05 D8038
G05 D3923
G05 D0
G01 Y100
G05 D7980
G05 D4038
G05 D0
G01 Y100
G05 D7930
G05 D4139
G05 D0
G01 Y100
G05 D7884
G05 D4231
G05 D0
G01 Y100
G05 D7844
G05 D4312
G05 D0
G01 Y100
G05 D7810
G05 D4379
G05 D0
G01 Y100
G05 D7780
G05 D4439
G05 D0
G01 Y100
G05 D7755
G05 D3954
G05 D0
G01 Y100
G05 D7736
G05 D3973
G05 D0
G01 Y100
G05 D7720
G05 D3989
G05 D0
G01 Y100
G05 D7709
G05 D4000
G05 D0
G01 Y100
G05 D7703
G05 D4006
G05 D0
G01 Y100
G05 D7700
G05 D4009
G05 D0
G01 Y100
G05 D7703
G05 D4006
G05 D0
G01 Y100
G05 D7709
G05 D4000
G05 D0
G01 Y100
G05 D7720
G05 D3989
G05 D0
G01 Y100
G05 D7736
G05 D3973
G05 D0
G01 Y100
G05 D7755
G05 D4489
G05 D0
G01 Y100
G05 D7780
G05 D4439
G05 D0
G01 Y100
G05 D7810
G05 D4379
G05 D0
G01 Y100
G05 D7844
G05 D4312
G05 D0
G01 Y100
G05 D7884
G05 D4231
G05 D0
G01 Y100
G05 D7930
G05 D4140
G05 D0
G01 Y100
G05 D7980
G05 D4038
G05 D0
G01 Y100
G05 D8038
G05 D3923
G05 D0
G01 Y100
G05 D8104
G05 D3791
G05 D0
G01 Y100
G05 D8176
G05 D3647
G05 D0
G01 Y100
G05 D8257
G05 D3485
G05 D0
G01 Y100
G05 D8347
G05 D3304
G05 D0
G01 Y100
G05 D8451
G05 D3097
G05 D0
G01 Y100
G05 D8569
G05 D2862
G05 D0
G01 Y100
G05 D8704
G05 D2591
G05 D0
G01 Y100
G05 D8865
G05 D2269
G05 D0
G01 Y100
G05 D9065
G05 D1870
G05 D0
G01 Y100
G05 D9333
G05 D1336
G05 D0
; Disable laser
M20
G01 Z100
; Layer 8 at height 9.0
; Enable laser
M19
G01 Y-4400
G05 D9423
G05 D1154
G05 D0
G01 Y100
G05 D9126
G05 D1747
G05 D0
G01 Y100
G05 D8918
G05 D2162
G05 D0
G01 Y100
G05 D8750
G05 D2500
G05 D0
G01 Y100
G05 D8609
G05 D2781
G05 D0
G01 Y100
G05 D8488
G05 D3022
G05 D0
G01 Y100
G05 D8383
G05 D3232
G05 D0
G01 Y100
G05 D8291
G05 D3417
G05 D0
G01 Y100
G05 D8208
G05 D3583
G05 D0
G01 Y100
G05 D8134
G05 D3732
G05 D0
G01 Y100
G05 D8067
G05 D3865
G05 D0
G01 Y100
G05 D8009
G05 D3981
G05 D0
G01 Y100
G05 D7958
G05 D4084
G05 D0
G01 Y100
G05 D7911
G05 D4177
G05 D0
G01 Y100
G05 D7871
G05 D4258
G05 D0
G01 Y100
G05 D7836
G05 D4326
G05 D0
G01 Y100
G05 D7806
G05 D4387
G05 D0
G01 Y100
G05 D7781
G05 D3928
G05 D0
G01 Y100
G05 D7761
G05 D3948
G05 D0
G01 Y100
G05 D7745
G05 D3964
G05 D0
G01 Y100
G05 D7734
G05 D3975
G05 D0
G01 Y100
G05 D7728
G05 D3981
G05 D0
G01 Y100
G05 D7725
G05 D3984
G05 D0
G01 Y100
G05 D7728
G05 D3981
G05 D0
G01 Y100
G05 D7734
G05 D3975
G05 D0
G01 Y100
G05 D7745
G05 D3964
G05 D0
G01 Y100
G05 D7761
G05 D3948
G05 D0
G01 Y100
G05 D7781
G05 D4437
G05 D0
G01 Y100
G05 D7806
G05 D4387
G05 D0
G01 Y100
G05 D7836
G05 D4326
G05 D0
G01 Y100
G05 D7871
G05 D4258
G05 D0
G01 Y100
G05 D7911
G05 D4177
G05 D0
G01 Y100
G05 D7958
G05 D4084
G05 D0
G01 Y100
G05 D8009
G05 D3981
G05 D0
G01 Y100
G05 D8067
G05 D3865
G05 D0
G01 Y100
G05 D8134
G05 D3731
G05 D0
G01 Y100
G05 D8208
G05 D3583
G05 D0
G01 Y100
G05 D8291
G05 D3418
G05 D0
G01 Y100
G05 D8383
G05 D3232
G05 D0
G01 Y100
G05 D8488
G05 D3022
G05 D0
G01 Y100
G05 D8609
G05 D2781
G05 D0
G01 Y100
G05 D8750
G05 D2500
G05 D0
G01 Y100
G05 D8918
G05 D2164
G05 D0
G01 Y100
G05 D9126
G05 D1747
G05 D0
G01 Y100
G05 D9423
G05 D1154
G05 D0
; Disable laser
M20
G01 Z100
; Layer 9 at height 10.0
